; generated by PrusaSlicer 2.6.0-rc1+win64 on 2023-06-11 at 16:11:46 UTC


;
;
; 

; external perimeters extrusion width = 0.45mm
; perimeters extrusion width = 0.45mm
; infill extrusion width = 0.45mm
; solid infill extrusion width = 0.45mm
; top infill extrusion width = 0.40mm
; first layer extrusion width = 0.42mm

M73 P0 R76
;TYPE:Custom
M109 S0
M190 S0
START_PRINT EXTRUDER_TEMP=215 BED_TEMP=60
G21 ; set units to millimeters
G90 ; use absolute coordinates
M83 ; use relative distances for extrusion
; Filament gcode
M107
;LAYER_CHANGE
;Z:0.2
;HEIGHT:0.2
;BEFORE_LAYER_CHANGE
G92 E0.0
;0.2


G1 E-.8 F2100
G1 Z.4 F720
;AFTER_LAYER_CHANGE
;0.2
G1 X48.015 Y48.693 F10800
G1 Z.2 F720
G1 E.8 F2100
;TYPE:Skirt/Brim
;WIDTH:0.42
G1 F1500
G1 X49.06 Y47.817 E.04275
G1 X50 Y47.623 E.03009
G1 X170 Y47.623 E3.76252
G1 X171.307 Y48.015 E.04278
G1 X172.183 Y49.06 E.04275
G1 X172.377 Y50 E.03009
G1 X172.377 Y58 E.25083
G1 X171.681 Y59.681 E.05705
G1 X59.681 Y171.681 E4.96627
M73 P0 R75
G1 X58 Y172.377 E.05705
G1 X50 Y172.377 E.25083
G1 X48.693 Y171.985 E.04278
G1 X47.817 Y170.94 E.04275
G1 X47.623 Y170 E.03009
G1 X47.623 Y50 E3.76252
G1 X47.997 Y48.75 E.04091
; printing object ringing_tower (1).stl id:0 copy 0
;WIPE_START
G1 F8640
G1 X49.06 Y47.817 E-.32658
G1 X50 Y47.623 E-.22162
G1 X51.091 Y47.623 E-.2518
;WIPE_END
G1 Z.6 F720
G1 X79.151 Y55.174 F10800
G1 Z.2 F720
G1 E.8 F2100
;TYPE:Perimeter
;WIDTH:0.419999
G1 F1500
G1 X79.294 Y55.483 E.01068
G1 X79.482 Y55.692 E.00881
G1 X79.796 Y55.787 E.01029
G1 X86.517 Y55.787 E.21073
G1 X86.831 Y55.692 E.01029
G1 X87.018 Y55.483 E.00879
G1 X87.142 Y55.244 E.00844
G1 X87.206 Y55.009 E.00764
G1 X87.187 Y54.836 E.00546
G1 X87.104 Y54.659 E.00613
G1 X84.393 Y50.787 E.1482
G1 X122.169 Y50.787 E1.18444
G1 X125.502 Y55.546 E.18217
G1 X125.689 Y55.715 E.0079
G1 X125.965 Y55.787 E.00894
G1 X133.695 Y55.787 E.24237
G1 X133.971 Y55.715 E.00894
G1 X134.159 Y55.546 E.00793
G1 X137.491 Y50.787 E.18215
G1 X169.213 Y50.787 E.99462
G1 X169.213 Y57.213 E.20148
G1 X118.326 Y57.213 E1.59552
G1 X116.882 Y55.793 E.0635
G1 X116.592 Y55.713 E.00943
G1 X111.408 Y55.713 E.16254
G1 X111.255 Y55.734 E.00484
G1 X111.008 Y55.879 E.00898
G1 X109.674 Y57.213 E.05915
G1 X57.779 Y57.213 E1.62713
G1 X57.554 Y57.259 E.0072
G1 X57.379 Y57.379 E.00665
G1 X57.259 Y57.554 E.00665
G1 X57.213 Y57.779 E.0072
G1 X57.213 Y92.036 E1.0741
G1 X55.851 Y93.603 E.0651
G1 X55.787 Y93.776 E.00578
G1 X55.787 Y86.305 E.23425
G1 X55.715 Y86.029 E.00894
G1 X55.546 Y85.841 E.00793
G1 X50.787 Y82.509 E.18215
G1 X50.787 Y50.787 E.99462
G1 X81.919 Y50.787 E.97612
G1 X79.208 Y54.659 E.1482
G1 X79.126 Y54.836 E.00612
G1 X79.107 Y55.009 E.00546
G1 X79.136 Y55.116 E.00348
;WIPE_START
G1 F8640
G1 X79.294 Y55.483 E-.09226
G1 X79.482 Y55.692 E-.06491
G1 X79.796 Y55.787 E-.07575
G1 X82.252 Y55.787 E-.56708
;WIPE_END
G1 Z.6 F720
G1 X55.713 Y94.236 F10800
G1 Z.2 F720
G1 E.8 F2100
G1 F1500
G1 X55.721 Y99.995 E.18057
G1 X55.851 Y100.268 E.00948
G1 X57.213 Y101.835 E.0651
G1 X57.213 Y126.165 E.76285
G1 X55.779 Y127.838 E.06909
G1 X55.713 Y128.103 E.00856
G1 X55.713 Y133.361 E.16486
G1 X55.483 Y132.982 E.0139
G1 X55.244 Y132.858 E.00844
G1 X54.854 Y132.809 E.01232
G1 X54.659 Y132.896 E.00669
G1 X50.787 Y135.607 E.1482
G1 X50.787 Y97.831 E1.18444
G1 X55.546 Y94.498 E.18217
G1 X55.681 Y94.287 E.00785
;WIPE_START
G1 F8640
G1 X55.705 Y97.752 E-.8
;WIPE_END
G1 Z.6 F720
G1 X55.8 Y134.319 F10800
G1 Z.2 F720
G1 E.8 F2100
;WIDTH:0.428923
G1 F1500
G1 X55.841 Y134.405 E.00306
G1 X57.038 Y135.763 E.0581
;WIDTH:0.419999
G1 X57.213 Y135.964 E.00836
G1 X57.213 Y169.213 E1.0425
G1 X50.787 Y169.213 E.20148
G1 X50.787 Y138.081 E.97612
G1 X54.659 Y140.792 E.1482
G1 X54.836 Y140.874 E.00612
G1 X55.009 Y140.893 E.00546
G1 X55.244 Y140.83 E.00763
G1 X55.483 Y140.706 E.00844
G1 X55.692 Y140.518 E.00881
G1 X55.787 Y140.204 E.01029
G1 X55.787 Y136.23 E.1246
;WIDTH:0.428923
G1 X55.8 Y134.379 E.05941
;WIPE_START
G1 F8640
G1 X55.841 Y134.405 E-.01121
G1 X57.038 Y135.763 E-.41799
G1 X57.213 Y135.964 E-.06154
G1 X57.213 Y137.303 E-.30926
;WIPE_END
G1 Z.6 F720
G1 X79.505 Y55.07 F10800
G1 Z.2 F720
G1 E.8 F2100
;TYPE:External perimeter
;WIDTH:0.419999
G1 F1500
G1 X79.691 Y55.378 E.01128
G1 X79.796 Y55.41 E.00344
G1 X86.517 Y55.41 E.21073
G1 X86.549 Y55.407 E.00101
G1 X86.684 Y55.309 E.00523
G1 X86.829 Y54.992 E.01093
G1 X86.795 Y54.875 E.00382
G1 X83.669 Y50.41 E.1709
G1 X122.366 Y50.41 E1.21332
G1 X125.81 Y55.33 E.1883
G1 X125.965 Y55.41 E.00547
G1 X133.695 Y55.41 E.24237
G1 X133.85 Y55.33 E.00547
G1 X137.295 Y50.41 E.18832
G1 X169.59 Y50.41 E1.01259
G1 X169.59 Y54 E.11256
M73 P1 R75
G1 X169.59 Y57.59 E.11256
G1 X118.17 Y57.59 E1.61224
G1 X116.725 Y56.145 E.06407
G1 X116.592 Y56.09 E.00451
G1 X111.408 Y56.09 E.16254
G1 X111.275 Y56.145 E.00451
G1 X109.83 Y57.59 E.06407
G1 X57.779 Y57.59 E1.63202
G1 X57.645 Y57.645 E.00454
G1 X57.59 Y57.779 E.00454
G1 X57.59 Y92.177 E1.07852
G1 X56.136 Y93.851 E.06952
;WIDTH:0.457865
G1 X56.106 Y93.882 E.00149
;WIDTH:0.49573
G1 X56.075 Y93.913 E.00165
;WIDTH:0.533596
G1 X56.045 Y93.943 E.00173
;WIDTH:0.571461
G1 X56.014 Y93.974 E.00193
G1 X56.033 Y94.173 E.00879
;WIDTH:0.533596
G1 X56.052 Y94.31 E.00564
;WIDTH:0.49573
G1 X56.071 Y94.448 E.00524
;WIDTH:0.457865
G1 X56.09 Y94.585 E.00477
;WIDTH:0.419999
G1 X56.09 Y99.897 E.16655
G1 X56.136 Y100.02 E.00412
G1 X57.59 Y101.694 E.06952
G1 X57.59 Y126.306 E.77169
G1 X56.136 Y127.98 E.06952
G1 X56.09 Y128.103 E.00412
G1 X56.09 Y132.842 E.14859
;WIDTH:0.457865
G1 X56.071 Y133.002 E.00556
;WIDTH:0.49573
G1 X56.052 Y133.163 E.0061
;WIDTH:0.533595
G1 X56.033 Y133.323 E.00657
;WIDTH:0.57146
G1 X56.014 Y133.483 E.00708
;WIDTH:0.575466
G1 X56.016 Y134.072 E.02608
G1 X56.055 Y134.099 E.0021
;WIDTH:0.526619
G1 X56.094 Y134.125 E.00189
;WIDTH:0.477771
G1 X56.133 Y134.152 E.00172
;WIDTH:0.428923
G1 X57.323 Y135.516 E.0581
;WIDTH:0.419999
G1 X57.59 Y135.823 E.01276
G1 X57.59 Y169.59 E1.05874
G1 X50.41 Y169.59 E.22512
G1 X50.41 Y137.356 E1.01067
G1 X54.875 Y140.483 E.17091
G1 X54.934 Y140.51 E.00203
G1 X55.07 Y140.495 E.00429
G1 X55.378 Y140.309 E.01128
G1 X55.41 Y140.204 E.00344
G1 X55.41 Y136.23 E.1246
;WIDTH:0.428923
G1 X55.414 Y134.421 E.05806
;WIDTH:0.476436
G1 X55.438 Y134.289 E.00484
;WIDTH:0.523948
G1 X55.462 Y134.157 E.00537
;WIDTH:0.57146
G1 X55.486 Y134.026 E.00585
G1 X55.486 Y133.483 E.02386
G1 X55.441 Y133.442 E.00268
;WIDTH:0.533595
G1 X55.397 Y133.4 E.00248
;WIDTH:0.49573
G1 X55.353 Y133.358 E.00229
;WIDTH:0.457865
G1 X55.309 Y133.316 E.0021
;WIDTH:0.419999
G1 X55.07 Y133.192 E.00844
G1 X54.875 Y133.205 E.00613
G1 X50.41 Y136.331 E.1709
G1 X50.41 Y97.634 E1.21332
G1 X55.33 Y94.19 E.1883
;WIDTH:0.458866
G1 X55.368 Y94.162 E.00163
;WIDTH:0.497732
G1 X55.407 Y94.135 E.00179
;WIDTH:0.536598
G1 X55.445 Y94.108 E.00191
;WIDTH:0.575464
G1 X55.484 Y94.081 E.0021
G1 X55.465 Y93.956 E.0056
;WIDTH:0.536598
G1 X55.447 Y93.83 E.00522
;WIDTH:0.497732
G1 X55.428 Y93.705 E.00478
;WIDTH:0.458866
G1 X55.41 Y93.579 E.0044
;WIDTH:0.419999
G1 X55.41 Y86.305 E.22807
G1 X55.33 Y86.15 E.00547
G1 X50.41 Y82.705 E.18832
G1 X50.41 Y50.41 E1.01259
G1 X82.644 Y50.41 E1.01067
G1 X79.517 Y54.875 E.17091
G1 X79.49 Y54.934 E.00203
G1 X79.498 Y55.01 E.0024
G1 X79.271 Y55.344 F10800
;WIPE_START
G1 F8640
G1 X79.691 Y55.378 E-.09595
G1 X79.796 Y55.41 E-.02535
G1 X82.735 Y55.41 E-.6787
;WIPE_END
G1 Z.6 F720
G1 X55.1 Y95.018 F10800
G1 Z.2 F720
G1 E.8 F2100
;TYPE:Solid infill
;WIDTH:0.424001
G1 F1500
G1 X55.374 Y95.291 E.01226
G1 X55.374 Y95.83 E.01708
G1 X54.905 Y95.362 E.02099
G1 X54.588 Y95.583 E.01224
G1 X55.374 Y96.369 E.03522
G1 X55.374 Y96.908 E.01708
G1 X54.271 Y95.805 E.04943
G1 X53.954 Y96.027 E.01226
G1 X55.374 Y97.447 E.06363
G1 X55.374 Y97.986 E.01708
G1 X53.637 Y96.249 E.07784
G1 X53.32 Y96.471 E.01226
G1 X55.374 Y98.525 E.09204
G1 X55.374 Y99.064 E.01708
G1 X53.003 Y96.693 E.10625
G1 X52.686 Y96.915 E.01226
G1 X55.374 Y99.603 E.12046
G1 X55.374 Y99.906 E.0096
G1 X55.4 Y100.119 E.0068
G1 X55.431 Y100.199 E.00272
G1 X52.369 Y97.137 E.13721
G1 X52.052 Y97.359 E.01226
G1 X56.874 Y102.18 E.21606
G1 X56.874 Y102.719 E.01708
G1 X51.735 Y97.581 E.23027
G1 X51.418 Y97.803 E.01226
G1 X56.874 Y103.258 E.24447
G1 X56.874 Y103.797 E.01708
G1 X51.126 Y98.05 E.25756
G1 X51.126 Y98.589 E.01708
G1 X56.874 Y104.336 E.25756
G1 X56.874 Y104.875 E.01708
G1 X51.126 Y99.128 E.25756
M73 P1 R74
G1 X51.126 Y99.667 E.01708
G1 X56.874 Y105.414 E.25756
G1 X56.874 Y105.953 E.01708
G1 X51.126 Y100.206 E.25756
G1 X51.126 Y100.745 E.01708
G1 X56.874 Y106.492 E.25756
G1 X56.874 Y107.031 E.01708
G1 X51.126 Y101.284 E.25756
G1 X51.126 Y101.823 E.01708
G1 X56.874 Y107.57 E.25756
G1 X56.874 Y108.109 E.01708
G1 X51.126 Y102.362 E.25756
G1 X51.126 Y102.9 E.01705
G1 X56.874 Y108.648 E.25758
G1 X56.874 Y109.187 E.01708
G1 X51.126 Y103.439 E.25758
G1 X51.126 Y103.978 E.01708
G1 X56.874 Y109.725 E.25756
G1 X56.874 Y110.264 E.01708
G1 X51.126 Y104.517 E.25756
G1 X51.126 Y105.056 E.01708
G1 X56.874 Y110.803 E.25756
G1 X56.874 Y111.342 E.01708
G1 X51.126 Y105.595 E.25756
G1 X51.126 Y106.134 E.01708
G1 X56.874 Y111.881 E.25756
G1 X56.874 Y112.42 E.01708
G1 X51.126 Y106.673 E.25756
G1 X51.126 Y107.212 E.01708
G1 X56.874 Y112.959 E.25756
G1 X56.874 Y113.498 E.01708
G1 X51.126 Y107.751 E.25756
G1 X51.126 Y108.29 E.01708
G1 X56.874 Y114.037 E.25756
G1 X56.874 Y114.576 E.01708
G1 X51.126 Y108.829 E.25756
G1 X51.126 Y109.368 E.01708
G1 X56.874 Y115.115 E.25756
G1 X56.874 Y115.654 E.01708
G1 X51.126 Y109.907 E.25756
G1 X51.126 Y110.446 E.01708
G1 X56.874 Y116.193 E.25756
G1 X56.874 Y116.732 E.01708
G1 X51.126 Y110.984 E.25758
G1 X51.126 Y111.523 E.01708
G1 X56.874 Y117.27 E.25756
G1 X56.874 Y117.809 E.01708
G1 X51.126 Y112.062 E.25756
G1 X51.126 Y112.601 E.01708
G1 X56.874 Y118.348 E.25756
G1 X56.874 Y118.887 E.01708
G1 X51.126 Y113.14 E.25756
G1 X51.126 Y113.679 E.01708
G1 X56.874 Y119.426 E.25756
G1 X56.874 Y119.965 E.01708
G1 X51.126 Y114.218 E.25756
G1 X51.126 Y114.757 E.01708
G1 X56.874 Y120.504 E.25756
G1 X56.874 Y121.043 E.01708
G1 X51.126 Y115.296 E.25756
G1 X51.126 Y115.835 E.01708
G1 X56.874 Y121.582 E.25756
G1 X56.874 Y122.121 E.01708
G1 X51.126 Y116.374 E.25756
G1 X51.126 Y116.913 E.01708
G1 X56.874 Y122.66 E.25756
G1 X56.874 Y123.199 E.01708
G1 X51.126 Y117.452 E.25756
G1 X51.126 Y117.991 E.01708
G1 X56.874 Y123.738 E.25756
G1 X56.874 Y124.277 E.01708
G1 X51.126 Y118.529 E.25758
G1 X51.126 Y119.068 E.01708
G1 X56.874 Y124.816 E.25758
G1 X56.874 Y125.354 E.01705
G1 X51.126 Y119.607 E.25756
G1 X51.126 Y120.146 E.01708
G1 X56.874 Y125.893 E.25756
G1 X56.874 Y126.038 E.00459
G1 X56.69 Y126.249 E.00887
G1 X51.126 Y120.685 E.24934
G1 X51.126 Y121.224 E.01708
G1 X56.44 Y126.537 E.23811
G1 X56.189 Y126.826 E.01213
G1 X51.126 Y121.763 E.22688
G1 X51.126 Y122.302 E.01708
G1 X55.939 Y127.114 E.21566
G1 X55.688 Y127.403 E.01213
G1 X51.126 Y122.841 E.20443
G1 X51.126 Y123.38 E.01708
G1 X55.463 Y127.717 E.19435
G1 X55.4 Y127.881 E.00557
G1 X55.374 Y128.166 E.00907
G1 X51.126 Y123.919 E.19034
G1 X51.126 Y124.458 E.01708
G1 X55.374 Y128.705 E.19034
G1 X55.374 Y129.244 E.01708
G1 X51.126 Y124.997 E.19034
G1 X51.126 Y125.536 E.01708
G1 X55.374 Y129.783 E.19034
G1 X55.374 Y130.322 E.01708
G1 X51.126 Y126.074 E.19036
G1 X51.126 Y126.613 E.01708
G1 X55.374 Y130.861 E.19036
G1 X55.374 Y131.399 E.01705
G1 X51.126 Y127.152 E.19034
G1 X51.126 Y127.691 E.01708
G1 X55.374 Y131.938 E.19034
G1 X55.374 Y132.477 E.01708
G1 X51.126 Y128.23 E.19034
G1 X51.126 Y128.769 E.01708
G1 X54.833 Y132.476 E.16612
G1 X54.788 Y132.47 E.00144
G1 X54.448 Y132.629 E.01189
G1 X51.126 Y129.308 E.14884
G1 X51.126 Y129.847 E.01708
G1 X54.131 Y132.851 E.13464
G1 X53.814 Y133.073 E.01226
G1 X51.126 Y130.386 E.12043
G1 X51.126 Y130.925 E.01708
G1 X53.497 Y133.295 E.10623
G1 X53.18 Y133.517 E.01226
G1 X51.126 Y131.464 E.09202
G1 X51.126 Y132.003 E.01708
G1 X52.863 Y133.739 E.07782
G1 X52.546 Y133.961 E.01226
G1 X51.126 Y132.542 E.06361
G1 X51.126 Y133.081 E.01708
G1 X52.229 Y134.183 E.04941
G1 X51.912 Y134.405 E.01226
G1 X51.126 Y133.619 E.03522
G1 X51.126 Y134.158 E.01708
G1 X51.595 Y134.627 E.02102
G1 X51.278 Y134.849 E.01226
G1 X50.957 Y134.528 E.01438
;WIPE_START
G1 F8640
G1 X51.278 Y134.849 E-.10482
G1 X51.595 Y134.627 E-.08936
G1 X51.126 Y134.158 E-.15315
G1 X51.126 Y133.619 E-.12446
G1 X51.912 Y134.405 E-.25667
G1 X52.166 Y134.227 E-.07154
;WIPE_END
G1 Z.6 F720
G1 X57.043 Y136.64 F10800
G1 Z.2 F720
G1 E.8 F2100
;WIDTH:0.423944
G1 F1500
G1 X56.125 Y135.721 E.04115
G1 X56.123 Y136.259 E.01705
G1 X56.874 Y137.009 E.03363
G1 X56.874 Y137.548 E.01708
G1 X56.122 Y136.797 E.03367
G1 X56.121 Y137.334 E.01701
G1 X56.874 Y138.087 E.03374
G1 X56.874 Y138.625 E.01705
G1 X56.12 Y137.872 E.03376
G1 X56.119 Y138.41 E.01705
G1 X56.874 Y139.164 E.03381
G1 X56.874 Y139.703 E.01708
G1 X56.118 Y138.948 E.03385
G1 X56.117 Y139.485 E.01701
G1 X56.874 Y140.242 E.03392
G1 X56.874 Y140.781 E.01708
G1 X56.116 Y140.023 E.03396
G1 X56.115 Y140.364 E.0108
G1 X56.059 Y140.505 E.00481
G1 X56.874 Y141.32 E.03652
G1 X56.874 Y141.859 E.01708
G1 X55.844 Y140.829 E.04615
G1 X55.656 Y140.998 E.00801
G1 X55.537 Y141.06 E.00425
G1 X56.874 Y142.397 E.0599
G1 X56.874 Y142.936 E.01708
G1 X55.142 Y141.204 E.0776
G1 X55.029 Y141.235 E.00371
G1 X54.746 Y141.204 E.00902
G1 X54.476 Y141.078 E.00944
G1 X56.874 Y143.475 E.10742
G1 X56.874 Y144.014 E.01708
G1 X52.68 Y139.82 E.18791
G1 X51.126 Y138.733 E.06008
G1 X51.126 Y138.806 E.00231
G1 X56.874 Y144.553 E.25752
G1 X56.874 Y145.092 E.01708
G1 X51.126 Y139.345 E.25752
G1 X51.126 Y139.883 E.01705
G1 X56.874 Y145.631 E.25754
G1 X56.874 Y146.169 E.01705
G1 X51.126 Y140.422 E.25752
G1 X51.126 Y140.961 E.01708
G1 X56.874 Y146.708 E.25752
G1 X56.874 Y147.247 E.01708
G1 X51.126 Y141.5 E.25752
G1 X51.126 Y142.039 E.01708
G1 X56.874 Y147.786 E.25752
G1 X56.874 Y148.325 E.01708
G1 X51.126 Y142.578 E.25752
G1 X51.126 Y143.117 E.01708
G1 X56.874 Y148.864 E.25752
G1 X56.874 Y149.402 E.01705
G1 X51.126 Y143.655 E.25752
M73 P2 R74
G1 X51.126 Y144.194 E.01708
G1 X56.874 Y149.941 E.25752
G1 X56.874 Y150.48 E.01708
G1 X51.126 Y144.733 E.25752
G1 X51.126 Y145.272 E.01708
G1 X56.874 Y151.019 E.25752
G1 X56.874 Y151.558 E.01708
G1 X51.126 Y145.811 E.25752
G1 X51.126 Y146.35 E.01708
G1 X56.874 Y152.097 E.25752
G1 X56.874 Y152.636 E.01708
G1 X51.126 Y146.888 E.25754
G1 X51.126 Y147.427 E.01708
G1 X56.874 Y153.174 E.25752
G1 X56.874 Y153.713 E.01708
G1 X51.126 Y147.966 E.25752
G1 X51.126 Y148.505 E.01708
G1 X56.874 Y154.252 E.25752
G1 X56.874 Y154.791 E.01708
G1 X51.126 Y149.044 E.25752
G1 X51.126 Y149.583 E.01708
G1 X56.874 Y155.33 E.25752
G1 X56.874 Y155.869 E.01708
G1 X51.126 Y150.122 E.25752
G1 X51.126 Y150.66 E.01705
G1 X56.874 Y156.408 E.25754
G1 X56.874 Y156.946 E.01705
G1 X51.126 Y151.199 E.25752
G1 X51.126 Y151.738 E.01708
G1 X56.874 Y157.485 E.25752
G1 X56.874 Y158.024 E.01708
G1 X51.126 Y152.277 E.25752
G1 X51.126 Y152.816 E.01708
G1 X56.874 Y158.563 E.25752
G1 X56.874 Y159.102 E.01708
G1 X51.126 Y153.355 E.25752
G1 X51.126 Y153.893 E.01705
G1 X56.874 Y159.641 E.25754
G1 X56.874 Y160.179 E.01705
G1 X51.126 Y154.432 E.25752
G1 X51.126 Y154.971 E.01708
G1 X56.874 Y160.718 E.25752
G1 X56.874 Y161.257 E.01708
G1 X51.126 Y155.51 E.25752
G1 X51.126 Y156.049 E.01708
G1 X56.874 Y161.796 E.25752
G1 X56.874 Y162.335 E.01708
G1 X51.126 Y156.588 E.25752
G1 X51.126 Y157.127 E.01708
G1 X56.874 Y162.874 E.25752
G1 X56.874 Y163.413 E.01708
G1 X51.126 Y157.665 E.25754
G1 X51.126 Y158.204 E.01708
G1 X56.874 Y163.951 E.25752
G1 X56.874 Y164.49 E.01708
G1 X51.126 Y158.743 E.25752
G1 X51.126 Y159.282 E.01708
G1 X56.874 Y165.029 E.25752
G1 X56.874 Y165.568 E.01708
G1 X51.126 Y159.821 E.25752
G1 X51.126 Y160.36 E.01708
G1 X56.874 Y166.107 E.25752
G1 X56.874 Y166.646 E.01708
G1 X51.126 Y160.899 E.25752
G1 X51.126 Y161.437 E.01705
G1 X56.874 Y167.185 E.25754
G1 X56.874 Y167.723 E.01705
G1 X51.126 Y161.976 E.25752
G1 X51.126 Y162.515 E.01708
G1 X56.874 Y168.262 E.25752
G1 X56.874 Y168.801 E.01708
G1 X51.126 Y163.054 E.25752
G1 X51.126 Y163.593 E.01708
G1 X56.407 Y168.874 E.23662
G1 X55.868 Y168.874 E.01708
G1 X51.126 Y164.132 E.21247
