; generated by PrusaSlicer 2.6.1+win64 on 2023-11-23 at 14:49:53 UTC


;
;
; 

; external perimeters extrusion width = 0.45mm
; perimeters extrusion width = 0.45mm
; infill extrusion width = 0.45mm
; solid infill extrusion width = 0.45mm
; top infill extrusion width = 0.40mm
; first layer extrusion width = 0.42mm

M73 P0 R52
;TYPE:Custom
M109 S0
M190 S0
START_PRINT EXTRUDER_TEMP=210 BED_TEMP=60
G21 ; set units to millimeters
G90 ; use absolute coordinates
M83 ; use relative distances for extrusion
; Filament gcode
M107
;LAYER_CHANGE
;Z:0.3
;HEIGHT:0.3
;BEFORE_LAYER_CHANGE
G92 E0.0
;0.3


G1 E-.8 F2100
G1 Z.4 F7800
;AFTER_LAYER_CHANGE
;0.3
G1 X76.904 Y76.708
G1 Z.3
G1 E.8 F2100
;TYPE:Skirt/Brim
;WIDTH:0.42
G1 F1800
G1 X78.115 Y75.764 E.06811
G1 X78.721 Y75.438 E.03052
G1 X79.965 Y74.941 E.05942
G1 X81.477 Y74.672 E.06812
G1 X138.523 Y74.672 E2.53026
G1 X139.012 Y74.723 E.02181
G1 X140.035 Y74.941 E.04639
G1 X141.458 Y75.518 E.06811
G1 X142.73 Y76.379 E.06813
G1 X143.096 Y76.708 E.02183
G1 X143.796 Y77.485 E.04639
G1 X144.608 Y78.789 E.06814
G1 X145.131 Y80.233 E.06812
G1 X145.343 Y81.754 E.06812
G1 X145.356 Y138 E2.49478
G1 X145.233 Y139.286 E.0573
G1 X144.808 Y140.762 E.06813
G1 X144.085 Y142.117 E.06812
G1 X143.096 Y143.292 E.06812
G1 X141.885 Y144.236 E.06811
G1 X140.503 Y144.907 E.06814
G1 X140.035 Y145.059 E.02183
G1 X138.523 Y145.328 E.06812
G1 X81.477 Y145.328 E2.53026
G1 X79.965 Y145.059 E.06812
G1 X79.497 Y144.907 E.02183
G1 X78.115 Y144.236 E.06814
G1 X76.904 Y143.292 E.06811
G1 X75.915 Y142.117 E.06812
G1 X75.192 Y140.762 E.06812
G1 X74.767 Y139.286 E.06813
G1 X74.644 Y138 E.0573
G1 X74.644 Y82 E2.48387
G1 X74.767 Y80.714 E.0573
G1 X75.192 Y79.238 E.06813
G1 X75.915 Y77.883 E.06812
G1 X76.865 Y76.754 E.06545
; printing object square_tower.stl id:0 copy 0
;WIPE_START
G1 F6240
G1 X78.115 Y75.764 E-.5098
G1 X78.721 Y75.438 E-.22
G1 X78.925 Y75.357 E-.0702
;WIPE_END
G1 Z.7 F7800
G1 X81.595 Y141.851
G1 Z.3
G1 E.8 F2100
;TYPE:Perimeter
;WIDTH:0.42
G1 F1800
G1 X80.803 Y141.683 E.03591
G1 X80.064 Y141.354 E.03588
G1 X79.409 Y140.878 E.03591
G1 X78.867 Y140.276 E.03593
G1 X78.462 Y139.575 E.03591
G1 X78.212 Y138.805 E.03591
G1 X78.127 Y138 E.0359
G1 X78.212 Y137.195 E.0359
G1 X78.462 Y136.425 E.03591
G1 X78.867 Y135.724 E.03591
G1 X79.409 Y135.122 E.03593
G1 X80.064 Y134.646 E.03591
G1 X80.594 Y134.41 E.02573
G1 X80.917 Y134.165 E.01798
G1 X81.065 Y133.908 E.01315
G1 X81.121 Y133.598 E.01397
G1 X81.121 Y86.402 E2.09337
M73 P0 R51
G1 X81.065 Y86.092 E.01397
G1 X80.917 Y85.835 E.01315
G1 X80.594 Y85.59 E.01798
G1 X80.064 Y85.354 E.02573
G1 X79.409 Y84.878 E.03591
G1 X78.867 Y84.276 E.03593
G1 X78.462 Y83.575 E.03591
G1 X78.212 Y82.805 E.03591
G1 X78.127 Y82 E.0359
G1 X78.212 Y81.195 E.0359
G1 X78.462 Y80.425 E.03591
G1 X78.867 Y79.724 E.03591
G1 X79.409 Y79.122 E.03593
G1 X80.064 Y78.646 E.03591
G1 X80.803 Y78.317 E.03588
G1 X81.595 Y78.149 E.03591
G1 X82.405 Y78.149 E.03593
G1 X83.197 Y78.317 E.03591
G1 X83.936 Y78.646 E.03588
G1 X84.591 Y79.122 E.03591
G1 X85.133 Y79.724 E.03593
G1 X85.413 Y80.208 E.0248
G1 X85.669 Y80.723 E.02551
G1 X85.841 Y80.915 E.01143
G1 X86.098 Y81.065 E.0132
G1 X86.41 Y81.121 E.01406
G1 X133.59 Y81.121 E2.09266
G1 X133.901 Y81.065 E.01402
G1 X134.159 Y80.915 E.01324
G1 X134.331 Y80.723 E.01143
G1 X134.462 Y80.426 E.0144
G1 X134.867 Y79.724 E.03595
G1 X135.409 Y79.122 E.03593
G1 X136.064 Y78.646 E.03591
G1 X136.803 Y78.317 E.03588
G1 X137.595 Y78.149 E.03591
G1 X138.405 Y78.149 E.03593
G1 X139.197 Y78.317 E.03591
G1 X139.936 Y78.646 E.03588
G1 X140.591 Y79.122 E.03591
G1 X141.133 Y79.724 E.03593
G1 X141.538 Y80.425 E.03591
G1 X141.788 Y81.195 E.03591
G1 X141.873 Y82 E.0359
G1 X141.788 Y82.805 E.0359
G1 X141.538 Y83.575 E.03591
G1 X141.133 Y84.276 E.03591
G1 X140.591 Y84.878 E.03593
G1 X139.936 Y85.354 E.03591
G1 X139.406 Y85.59 E.02573
G1 X139.083 Y85.835 E.01798
G1 X138.935 Y86.092 E.01315
G1 X138.879 Y86.402 E.01397
G1 X138.879 Y133.598 E2.09337
G1 X138.935 Y133.908 E.01397
G1 X139.083 Y134.165 E.01315
G1 X139.406 Y134.41 E.01798
G1 X139.936 Y134.646 E.02573
G1 X140.591 Y135.122 E.03591
G1 X141.133 Y135.724 E.03593
G1 X141.538 Y136.425 E.03591
G1 X141.788 Y137.195 E.03591
G1 X141.873 Y138 E.0359
G1 X141.788 Y138.805 E.0359
G1 X141.538 Y139.575 E.03591
G1 X141.133 Y140.276 E.03591
G1 X140.591 Y140.878 E.03593
G1 X139.936 Y141.354 E.03591
G1 X139.197 Y141.683 E.03588
G1 X138.405 Y141.851 E.03591
G1 X137.595 Y141.851 E.03593
G1 X136.803 Y141.683 E.03591
G1 X136.064 Y141.354 E.03588
G1 X135.409 Y140.878 E.03591
G1 X134.867 Y140.276 E.03593
G1 X134.586 Y139.79 E.0249
G1 X134.331 Y139.277 E.02541
G1 X134.159 Y139.085 E.01143
G1 X133.901 Y138.935 E.01324
G1 X133.59 Y138.879 E.01402
G1 X86.41 Y138.879 E2.09266
G1 X86.098 Y138.935 E.01406
G1 X85.841 Y139.085 E.0132
G1 X85.668 Y139.277 E.01146
G1 X85.538 Y139.575 E.01442
G1 X85.133 Y140.276 E.03591
G1 X84.591 Y140.878 E.03593
G1 X83.936 Y141.354 E.03591
G1 X83.197 Y141.683 E.03588
G1 X82.405 Y141.851 E.03591
G1 X81.655 Y141.851 E.03327
G1 X81.558 Y142.207 F7800
G1 F1800
G1 X80.693 Y142.023 E.03923
G1 X79.885 Y141.663 E.03923
G1 X79.169 Y141.144 E.03922
G1 X78.578 Y140.486 E.03923
G1 X78.136 Y139.721 E.03919
G1 X77.862 Y138.88 E.03923
G1 X77.77 Y138 E.03924
G1 X77.862 Y137.12 E.03924
G1 X78.136 Y136.279 E.03923
G1 X78.578 Y135.514 E.03919
G1 X79.169 Y134.856 E.03923
G1 X79.885 Y134.337 E.03922
G1 X80.539 Y134.034 E.03197
G1 X80.732 Y133.784 E.01401
G1 X80.766 Y133.598 E.00839
G1 X80.766 Y86.402 E2.09337
G1 X80.732 Y86.216 E.00839
G1 X80.643 Y86.062 E.00789
G1 X80.449 Y85.915 E.0108
G1 X79.885 Y85.663 E.0274
G1 X79.169 Y85.144 E.03922
G1 X78.578 Y84.486 E.03923
G1 X78.136 Y83.721 E.03919
G1 X77.862 Y82.88 E.03923
G1 X77.77 Y82 E.03924
G1 X77.862 Y81.12 E.03924
G1 X78.136 Y80.279 E.03923
G1 X78.578 Y79.514 E.03919
G1 X79.169 Y78.856 E.03923
G1 X79.885 Y78.337 E.03922
G1 X80.693 Y77.977 E.03923
G1 X81.558 Y77.793 E.03923
G1 X82.442 Y77.793 E.03921
G1 X83.307 Y77.977 E.03923
G1 X84.115 Y78.337 E.03923
G1 X84.831 Y78.856 E.03922
G1 X85.422 Y79.514 E.03923
G1 X85.903 Y80.397 E.0446
G1 X86.068 Y80.642 E.0131
G1 X86.223 Y80.732 E.00795
G1 X86.41 Y80.766 E.00843
G1 X133.59 Y80.766 E2.09266
G1 X133.682 Y80.758 E.0041
G1 X133.931 Y80.642 E.01218
G1 X134.034 Y80.527 E.00685
G1 X134.135 Y80.28 E.01184
G1 X134.578 Y79.514 E.03925
G1 X135.169 Y78.856 E.03923
G1 X135.885 Y78.337 E.03922
G1 X136.693 Y77.977 E.03923
G1 X137.558 Y77.793 E.03923
G1 X138.442 Y77.793 E.03921
G1 X139.307 Y77.977 E.03923
G1 X140.115 Y78.337 E.03923
G1 X140.831 Y78.856 E.03922
G1 X141.422 Y79.514 E.03923
G1 X141.864 Y80.279 E.03919
G1 X142.138 Y81.121 E.03927
G1 X142.23 Y82 E.0392
G1 X142.138 Y82.879 E.0392
G1 X141.864 Y83.721 E.03927
G1 X141.422 Y84.486 E.03919
G1 X140.831 Y85.144 E.03923
G1 X140.115 Y85.663 E.03922
G1 X139.461 Y85.966 E.03197
G1 X139.268 Y86.216 E.01401
G1 X139.234 Y86.402 E.00839
G1 X139.234 Y133.598 E2.09337
G1 X139.242 Y133.69 E.0041
G1 X139.357 Y133.938 E.01213
G1 X139.551 Y134.085 E.0108
G1 X140.115 Y134.337 E.0274
G1 X140.831 Y134.856 E.03922
G1 X141.422 Y135.514 E.03923
G1 X141.864 Y136.279 E.03919
G1 X142.138 Y137.12 E.03923
G1 X142.23 Y138 E.03924
G1 X142.138 Y138.88 E.03924
G1 X141.864 Y139.721 E.03923
G1 X141.422 Y140.486 E.03919
G1 X140.831 Y141.144 E.03923
G1 X140.115 Y141.663 E.03922
G1 X139.307 Y142.023 E.03923
G1 X138.442 Y142.207 E.03923
G1 X137.558 Y142.207 E.03921
G1 X136.693 Y142.023 E.03923
G1 X135.885 Y141.663 E.03923
G1 X135.169 Y141.144 E.03922
G1 X134.578 Y140.486 E.03923
G1 X134.097 Y139.602 E.04464
G1 X133.931 Y139.358 E.01309
G1 X133.777 Y139.268 E.00791
G1 X133.59 Y139.234 E.00843
G1 X86.41 Y139.234 E2.09266
G1 X86.318 Y139.242 E.0041
G1 X86.068 Y139.358 E.01222
G1 X85.965 Y139.473 E.00685
G1 X85.864 Y139.721 E.01188
G1 X85.422 Y140.486 E.03919
G1 X84.831 Y141.144 E.03923
G1 X84.115 Y141.663 E.03922
G1 X83.307 Y142.023 E.03923
G1 X82.442 Y142.207 E.03923
G1 X81.618 Y142.207 E.03655
G1 X81.52 Y142.563 F7800
;TYPE:External perimeter
G1 F1800
G1 X80.582 Y142.363 E.04254
G1 X79.706 Y141.973 E.04253
G1 X78.93 Y141.409 E.04255
G1 X78.288 Y140.697 E.04252
G1 X77.809 Y139.866 E.04254
G1 X77.513 Y138.954 E.04253
G1 X77.412 Y138 E.04255
G1 X77.513 Y137.046 E.04255
G1 X77.809 Y136.134 E.04253
G1 X78.288 Y135.303 E.04254
G1 X78.93 Y134.591 E.04252
G1 X79.706 Y134.027 E.04255
G1 X80.335 Y133.743 E.03061
G1 X80.41 Y133.598 E.00724
G1 X80.41 Y86.402 E2.09337
G1 X80.399 Y86.34 E.00279
G1 X80.305 Y86.24 E.00609
G1 X79.706 Y85.973 E.02909
G1 X78.93 Y85.409 E.04255
G1 X78.288 Y84.697 E.04252
G1 X77.809 Y83.866 E.04254
G1 X77.513 Y82.954 E.04253
G1 X77.412 Y82 E.04255
G1 X77.513 Y81.046 E.04255
G1 X77.809 Y80.134 E.04253
G1 X78.288 Y79.303 E.04254
G1 X78.93 Y78.591 E.04252
G1 X79.706 Y78.027 E.04255
G1 X80.582 Y77.637 E.04253
G1 X81.52 Y77.437 E.04254
G1 X82.48 Y77.437 E.04258
G1 X83.418 Y77.637 E.04254
G1 X84.294 Y78.027 E.04253
G1 X85.07 Y78.591 E.04255
G1 X85.712 Y79.303 E.04252
G1 X86.029 Y79.853 E.02816
G1 X86.296 Y80.369 E.02577
G1 X86.41 Y80.41 E.00537
G1 X133.59 Y80.41 E2.09266
M73 P1 R51
G1 X133.704 Y80.369 E.00537
G1 X133.809 Y80.134 E.01142
G1 X134.288 Y79.303 E.04254
G1 X134.93 Y78.591 E.04252
G1 X135.706 Y78.027 E.04255
G1 X136.582 Y77.637 E.04253
G1 X137.52 Y77.437 E.04254
G1 X138.48 Y77.437 E.04258
G1 X139.418 Y77.637 E.04254
G1 X140.294 Y78.027 E.04253
G1 X141.07 Y78.591 E.04255
G1 X141.712 Y79.303 E.04252
G1 X142.191 Y80.134 E.04254
G1 X142.487 Y81.046 E.04253
G1 X142.588 Y82 E.04255
G1 X142.487 Y82.954 E.04255
G1 X142.191 Y83.866 E.04253
G1 X141.712 Y84.697 E.04254
G1 X141.07 Y85.409 E.04252
G1 X140.294 Y85.973 E.04255
G1 X139.665 Y86.257 E.03061
G1 X139.59 Y86.402 E.00724
G1 X139.59 Y133.598 E2.09337
G1 X139.601 Y133.66 E.00279
G1 X139.695 Y133.761 E.00612
G1 X140.294 Y134.027 E.02907
G1 X141.07 Y134.591 E.04255
G1 X141.712 Y135.303 E.04252
G1 X142.191 Y136.134 E.04254
G1 X142.487 Y137.046 E.04253
G1 X142.588 Y138 E.04255
G1 X142.487 Y138.954 E.04255
G1 X142.191 Y139.866 E.04253
G1 X141.712 Y140.697 E.04254
G1 X141.07 Y141.409 E.04252
G1 X140.294 Y141.973 E.04255
G1 X139.418 Y142.363 E.04253
G1 X138.48 Y142.563 E.04254
G1 X137.52 Y142.563 E.04258
G1 X136.582 Y142.363 E.04254
G1 X135.706 Y141.973 E.04253
G1 X134.93 Y141.409 E.04255
G1 X134.288 Y140.697 E.04252
G1 X133.97 Y140.145 E.02826
G1 X133.704 Y139.631 E.02567
G1 X133.59 Y139.59 E.00537
G1 X86.41 Y139.59 E2.09266
G1 X86.296 Y139.631 E.00537
G1 X86.191 Y139.866 E.01142
G1 X85.712 Y140.697 E.04254
G1 X85.07 Y141.409 E.04252
G1 X84.294 Y141.973 E.04255
G1 X83.418 Y142.363 E.04253
G1 X82.48 Y142.563 E.04254
G1 X81.58 Y142.563 E.03992
G1 X81.358 Y142.197 F7800
;WIPE_START
G1 F6240
G1 X80.582 Y142.363 E-.32542
G1 X79.706 Y141.973 E-.30657
G1 X79.281 Y141.664 E-.16801
;WIPE_END
G1 Z.7 F7800
G1 X111.353 Y136.6
G1 Z.3
G1 E.8 F2100
;TYPE:Perimeter
G1 F1800
G1 X111.232 Y136.621 E.00545
G1 X108.768 Y136.621 E.10929
G1 X108.464 Y136.568 E.01369
G1 X108.211 Y136.425 E.01289
G1 X108.065 Y136.121 E.01496
G1 X84.768 Y136.121 E1.03333
G1 X84.512 Y136.084 E.01147
G1 X84.183 Y135.902 E.01668
G1 X84.077 Y135.792 E.00678
G1 X83.91 Y135.466 E.01625
G1 X83.879 Y134.415 E.04664
G1 X83.879 Y107.935 E1.17451
G1 X83.575 Y107.789 E.01496
G1 X83.432 Y107.536 E.01289
G1 X83.379 Y107.232 E.01369
G1 X83.379 Y104.768 E.10929
G1 X83.432 Y104.464 E.01369
G1 X83.575 Y104.211 E.01289
G1 X83.879 Y104.065 E.01496
G1 X83.879 Y84.768 E.85591
G1 X83.971 Y84.373 E.01799
G1 X84.183 Y84.098 E.0154
G1 X84.512 Y83.916 E.01668
G1 X84.768 Y83.879 E.01147
G1 X108.065 Y83.879 E1.03333
G1 X108.211 Y83.575 E.01496
G1 X108.464 Y83.432 E.01289
G1 X108.768 Y83.379 E.01369
G1 X111.232 Y83.379 E.10929
G1 X111.536 Y83.432 E.01369
G1 X111.789 Y83.575 E.01289
G1 X111.935 Y83.879 E.01496
G1 X135.232 Y83.879 E1.03333
G1 X135.487 Y83.916 E.01143
G1 X135.817 Y84.098 E.01672
G1 X136.029 Y84.373 E.0154
G1 X136.121 Y84.768 E.01799
G1 X136.121 Y108.065 E1.03333
G1 X136.425 Y108.211 E.01496
G1 X136.568 Y108.464 E.01289
G1 X136.621 Y108.768 E.01369
G1 X136.621 Y111.232 E.10929
G1 X136.568 Y111.536 E.01369
G1 X136.425 Y111.789 E.01289
G1 X136.121 Y111.935 E.01496
G1 X136.121 Y135.232 E1.03333
G1 X136.029 Y135.627 E.01799
G1 X135.817 Y135.902 E.0154
G1 X135.487 Y136.084 E.01672
G1 X135.232 Y136.121 E.01143
G1 X111.935 Y136.121 E1.03333
G1 X111.789 Y136.425 E.01496
G1 X111.536 Y136.568 E.01289
G1 X111.412 Y136.59 E.00559
G1 X111.271 Y136.262 F7800
G1 F1800
G1 X108.768 Y136.266 E.11102
G1 X108.586 Y136.234 E.0082
G1 X108.434 Y136.148 E.00775
G1 X108.25 Y135.766 E.01881
G1 X84.768 Y135.766 E1.04154
G1 X84.484 Y135.684 E.01311
G1 X84.354 Y135.568 E.00773
G1 X84.253 Y135.372 E.00978
G1 X84.234 Y134.415 E.04246
G1 X84.234 Y107.75 E1.18272
G1 X83.852 Y107.566 E.01881
G1 X83.742 Y107.324 E.01179
G1 X83.734 Y104.768 E.11337
G1 X83.766 Y104.586 E.0082
G1 X83.852 Y104.434 E.00775
G1 X84.234 Y104.25 E.01881
G1 X84.234 Y84.768 E.86412
G1 X84.309 Y84.495 E.01256
G1 X84.484 Y84.316 E.0111
G1 X84.768 Y84.234 E.01311
G1 X108.25 Y84.234 E1.04154
G1 X108.434 Y83.852 E.01881
G1 X108.676 Y83.742 E.01179
G1 X111.232 Y83.734 E.11337
G1 X111.414 Y83.766 E.0082
G1 X111.566 Y83.852 E.00775
G1 X111.75 Y84.234 E.01881
G1 X135.232 Y84.234 E1.04154
G1 X135.516 Y84.316 E.01311
G1 X135.691 Y84.495 E.0111
G1 X135.766 Y84.768 E.01256
G1 X135.766 Y108.25 E1.04154
G1 X136.148 Y108.434 E.01881
G1 X136.234 Y108.586 E.00775
G1 X136.266 Y108.768 E.0082
G1 X136.266 Y111.232 E.10929
G1 X136.234 Y111.414 E.0082
G1 X136.148 Y111.566 E.00775
G1 X135.766 Y111.75 E.01881
G1 X135.766 Y135.232 E1.04154
G1 X135.691 Y135.505 E.01256
G1 X135.516 Y135.684 E.0111
G1 X135.232 Y135.766 E.01311
G1 X111.75 Y135.766 E1.04154
G1 X111.566 Y136.148 E.01881
G1 X111.331 Y136.255 E.01145
G1 X111.232 Y135.91 F7800
;TYPE:External perimeter
G1 F1800
G1 X108.768 Y135.91 E.10929
G1 X108.656 Y135.871 E.00526
G1 X108.59 Y135.732 E.00683
G1 X108.59 Y135.41 E.01428
G1 X84.768 Y135.41 E1.05662
G1 X84.63 Y135.344 E.00678
G1 X84.59 Y135.232 E.00528
G1 X84.59 Y107.41 E1.23404
G1 X84.268 Y107.41 E.01428
G1 X84.129 Y107.344 E.00683
G1 X84.09 Y107.232 E.00526
G1 X84.09 Y104.768 E.10929
G1 X84.129 Y104.656 E.00526
G1 X84.268 Y104.59 E.00683
G1 X84.59 Y104.59 E.01428
G1 X84.59 Y84.768 E.8792
G1 X84.662 Y84.625 E.0071
G1 X84.768 Y84.59 E.00495
G1 X108.59 Y84.59 E1.05662
G1 X108.59 Y84.268 E.01428
G1 X108.656 Y84.129 E.00683
G1 X108.768 Y84.09 E.00526
G1 X111.232 Y84.09 E.10929
G1 X111.344 Y84.129 E.00526
G1 X111.41 Y84.268 E.00683
G1 X111.41 Y84.59 E.01428
G1 X135.232 Y84.59 E1.05662
G1 X135.373 Y84.66 E.00698
G1 X135.41 Y84.768 E.00506
G1 X135.41 Y108.59 E1.05662
G1 X135.732 Y108.59 E.01428
G1 X135.871 Y108.656 E.00683
G1 X135.91 Y108.768 E.00526
G1 X135.91 Y111.232 E.10929
G1 X135.871 Y111.344 E.00526
G1 X135.732 Y111.41 E.00683
G1 X135.41 Y111.41 E.01428
G1 X135.41 Y135.232 E1.05662
G1 X135.338 Y135.375 E.0071
G1 X135.232 Y135.41 E.00495
G1 X111.41 Y135.41 E1.05662
G1 X111.41 Y135.732 E.01428
G1 X111.344 Y135.871 E.00683
G1 X111.289 Y135.89 E.00258
G1 X111.129 Y136.296 F7800
;WIPE_START
G1 F6240
G1 X108.787 Y135.91 E-.8
;WIPE_END
G1 Z.7 F7800
G1 X141.578 Y81.068
G1 Z.3
G1 E.8 F2100
;TYPE:Solid infill
;WIDTH:0.420944
G1 F1800
G1 X139.163 Y78.652 E.15192
G1 X139.097 Y78.623 E.00321
G1 X138.503 Y78.497 E.027
G1 X141.497 Y81.491 E.1883
G1 X141.546 Y82.044 E.02469
G1 X137.971 Y78.469 E.22484
G1 X137.629 Y78.469 E.01521
G1 X137.495 Y78.497 E.00609
G1 X141.498 Y82.5 E.25176
G1 X141.473 Y82.738 E.01064
G1 X141.414 Y82.92 E.00851
G1 X137.079 Y78.586 E.27261
G1 X136.903 Y78.623 E.008
G1 X136.702 Y78.712 E.00978
G1 X141.29 Y83.301 E.28859
G1 X141.244 Y83.444 E.00668
G1 X141.129 Y83.644 E.01026
G1 X136.353 Y78.868 E.30038
G1 X136.225 Y78.925 E.00623
G1 X136.04 Y79.059 E.01016
G1 X140.944 Y83.963 E.30843
G1 X140.873 Y84.087 E.00635
G1 X140.726 Y84.25 E.00976
G1 X135.748 Y79.271 E.31312
G1 X135.624 Y79.361 E.00681
G1 X135.486 Y79.514 E.00916
G1 X140.487 Y84.515 E.31453
G1 X140.376 Y84.639 E.0074
G1 X140.22 Y84.752 E.00857
G1 X135.248 Y79.779 E.31274
G1 X135.127 Y79.913 E.00803
G1 X135.036 Y80.072 E.00815
