; generated by PrusaSlicer 2.6.0-rc1+win64 on 2023-06-10 at 11:55:09 UTC


;
;
; 

; external perimeters extrusion width = 0.45mm
; perimeters extrusion width = 0.45mm
; infill extrusion width = 0.45mm
; solid infill extrusion width = 0.45mm
; top infill extrusion width = 0.40mm
; first layer extrusion width = 0.42mm

M73 P0 R26
;TYPE:Custom
M109 S0
M190 S0
start_print EXTRUDER_TEMP=215 BED_TEMP=60
G21 ; set units to millimeters
G90 ; use absolute coordinates
M83 ; use relative distances for extrusion
; Filament gcode
M107
;LAYER_CHANGE
;Z:0.35
;HEIGHT:0.35
;BEFORE_LAYER_CHANGE
G92 E0.0
;0.35


G1 E-.6 F2700
G1 Z.4 F7800
;AFTER_LAYER_CHANGE
;0.35
G1 X94.851 Y95.729
G1 Z.35
G1 E.6 F2700
;TYPE:Skirt/Brim
;WIDTH:0.42
G1 F1800
G1 X96.606 Y94.235 E.11567
G1 X98.764 Y93.425 E.11568
G1 X100 Y93.31 E.0623
G1 X120 Y93.31 E1.00372
G1 X122.27 Y93.707 E.11565
G1 X124.271 Y94.851 E.11568
G1 X125.765 Y96.606 E.11567
G1 X126.575 Y98.764 E.11568
G1 X126.69 Y100 E.0623
G1 X126.69 Y120 E1.00372
G1 X126.293 Y122.27 E.11565
G1 X125.149 Y124.271 E.11568
G1 X123.394 Y125.765 E.11567
G1 X121.236 Y126.575 E.11568
G1 X120 Y126.69 E.0623
G1 X100 Y126.69 E1.00372
G1 X97.73 Y126.293 E.11565
G1 X95.729 Y125.149 E.11568
G1 X94.235 Y123.394 E.11567
G1 X93.425 Y121.236 E.11568
G1 X93.31 Y120 E.0623
G1 X93.31 Y100 E1.00372
G1 X93.707 Y97.73 E.11565
G1 X94.821 Y95.781 E.11266
G1 X95.131 Y95.964 F7800
G1 F1800
G1 X95.193 Y95.859 E.00612
G1 X96.935 Y94.444 E.11263
G1 X100 Y93.655 E.15883
G1 X120 Y93.655 E1.00372
G1 X122.209 Y94.052 E.11264
G1 X124.141 Y95.193 E.11261
G1 X125.556 Y96.935 E.11263
G1 X126.345 Y100 E.15883
G1 X126.345 Y120 E1.00372
G1 X125.948 Y122.209 E.11264
G1 X124.807 Y124.141 E.11261
G1 X123.065 Y125.556 E.11263
G1 X120 Y126.345 E.15883
G1 X100 Y126.345 E1.00372
G1 X97.791 Y125.948 E.11264
G1 X95.859 Y124.807 E.11261
G1 X94.444 Y123.065 E.11263
G1 X93.655 Y120 E.15883
G1 X93.655 Y100 E1.00372
G1 X94.052 Y97.791 E.11264
G1 X95.1 Y96.015 E.10349
;WIPE_START
G1 F6240
G1 X95.193 Y95.859 E-.07466
G1 X96.185 Y95.053 E-.52534
;WIPE_END
G1 Z.75 F7800
G1 X119.1 Y119.1
G1 Z.35
G1 E.6 F2700
;TYPE:Perimeter
;WIDTH:0.42
G1 F1800
G1 X100.9 Y119.1 E.91338
G1 X100.9 Y100.9 E.91338
G1 X119.1 Y100.9 E.91338
G1 X119.1 Y119.04 E.91037
G1 X119.445 Y119.445 F7800
G1 F1800
G1 X100.555 Y119.445 E.94801
G1 X100.555 Y100.555 E.94801
G1 X119.445 Y100.555 E.94801
G1 X119.445 Y119.385 E.945
G1 X119.79 Y119.79 F7800
;TYPE:External perimeter
G1 F1800
G1 X100.21 Y119.79 E.98264
G1 X100.21 Y100.21 E.98264
M73 P1 R26
G1 X119.79 Y100.21 E.98264
G1 X119.79 Y119.73 E.97963
G1 X119.404 Y119.686 F7800
;WIPE_START
G1 F6240
G1 X118.33 Y119.734 E-.6
;WIPE_END
G1 Z.75 F7800
G1 X118.29 Y101.003
G1 Z.35
G1 E.6 F2700
;TYPE:Solid infill
;WIDTH:0.424363
G1 F1800
G1 X118.842 Y101.555 E.03967
G1 X118.842 Y102.048 E.02505
G1 X117.952 Y101.158 E.06397
G1 X117.458 Y101.158 E.02511
G1 X118.842 Y102.542 E.09947
G1 X118.842 Y103.036 E.02511
G1 X116.964 Y101.158 E.13497
G1 X116.47 Y101.158 E.02511
G1 X118.842 Y103.53 E.17048
G1 X118.842 Y104.024 E.02511
G1 X115.976 Y101.158 E.20598
G1 X115.482 Y101.158 E.02511
G1 X118.842 Y104.518 E.24149
G1 X118.842 Y105.012 E.02511
G1 X114.988 Y101.158 E.27699
G1 X114.494 Y101.158 E.02511
G1 X118.842 Y105.506 E.3125
G1 X118.842 Y106 E.02511
G1 X114 Y101.158 E.348
G1 X113.506 Y101.158 E.02511
G1 X118.842 Y106.494 E.38351
G1 X118.842 Y106.988 E.02511
G1 X113.012 Y101.158 E.41901
G1 X112.518 Y101.158 E.02511
G1 X118.842 Y107.482 E.45451
G1 X118.842 Y107.975 E.02505
G1 X112.025 Y101.158 E.48995
G1 X111.531 Y101.158 E.02511
G1 X118.842 Y108.469 E.52545
G1 X118.842 Y108.963 E.02511
G1 X111.037 Y101.158 E.56096
G1 X110.543 Y101.158 E.02511
G1 X118.842 Y109.457 E.59646
G1 X118.842 Y109.951 E.02511
G1 X110.049 Y101.158 E.63196
G1 X109.555 Y101.158 E.02511
G1 X118.842 Y110.445 E.66747
G1 X118.842 Y110.939 E.02511
G1 X109.061 Y101.158 E.70297
G1 X108.567 Y101.158 E.02511
G1 X118.842 Y111.433 E.73848
G1 X118.842 Y111.927 E.02511
G1 X108.073 Y101.158 E.77398
G1 X107.579 Y101.158 E.02511
G1 X118.842 Y112.421 E.80949
G1 X118.842 Y112.915 E.02511
G1 X107.085 Y101.158 E.84499
G1 X106.591 Y101.158 E.02511
M73 P1 R25
G1 X118.842 Y113.409 E.8805
G1 X118.842 Y113.902 E.02505
G1 X106.098 Y101.158 E.91593
G1 X105.604 Y101.158 E.02511
G1 X118.842 Y114.396 E.95143
G1 X118.842 Y114.89 E.02511
G1 X105.11 Y101.158 E.98694
G1 X104.616 Y101.158 E.02511
G1 X118.842 Y115.384 E1.02244
G1 X118.842 Y115.878 E.02511
G1 X104.122 Y101.158 E1.05795
G1 X103.628 Y101.158 E.02511
G1 X118.842 Y116.372 E1.09345
G1 X118.842 Y116.866 E.02511
G1 X103.134 Y101.158 E1.12896
M73 P2 R25
G1 X102.64 Y101.158 E.02511
G1 X118.842 Y117.36 E1.16446
G1 X118.842 Y117.854 E.02511
G1 X102.146 Y101.158 E1.19996
G1 X101.652 Y101.158 E.02511
G1 X118.842 Y118.348 E1.23547
G1 X118.842 Y118.842 E.02511
G1 X101.158 Y101.158 E1.27097
G1 X101.158 Y101.652 E.02511
G1 X118.348 Y118.842 E1.23547
G1 X117.854 Y118.842 E.02511
G1 X101.158 Y102.146 E1.19996
G1 X101.158 Y102.64 E.02511
G1 X117.36 Y118.842 E1.16446
G1 X116.866 Y118.842 E.02511
G1 X101.158 Y103.134 E1.12896
G1 X101.158 Y103.628 E.02511
G1 X116.372 Y118.842 E1.09345
G1 X115.878 Y118.842 E.02511
G1 X101.158 Y104.122 E1.05795
G1 X101.158 Y104.616 E.02511
G1 X115.384 Y118.842 E1.02244
G1 X114.89 Y118.842 E.02511
G1 X101.158 Y105.11 E.98694
G1 X101.158 Y105.604 E.02511
G1 X114.396 Y118.842 E.95143
G1 X113.902 Y118.842 E.02511
G1 X101.158 Y106.098 E.91593
G1 X101.158 Y106.592 E.02511
G1 X113.408 Y118.842 E.88042
G1 X112.915 Y118.842 E.02505
G1 X101.158 Y107.085 E.84499
G1 X101.158 Y107.579 E.02511
G1 X112.421 Y118.842 E.80949
G1 X111.927 Y118.842 E.02511
G1 X101.158 Y108.073 E.77398
G1 X101.158 Y108.567 E.02511
G1 X111.433 Y118.842 E.73848
G1 X110.939 Y118.842 E.02511
G1 X101.158 Y109.061 E.70297
G1 X101.158 Y109.555 E.02511
G1 X110.445 Y118.842 E.66747
G1 X109.951 Y118.842 E.02511
G1 X101.158 Y110.049 E.63196
G1 X101.158 Y110.543 E.02511
G1 X109.457 Y118.842 E.59646
G1 X108.963 Y118.842 E.02511
G1 X101.158 Y111.037 E.56096
M73 P3 R25
G1 X101.158 Y111.531 E.02511
G1 X108.469 Y118.842 E.52545
G1 X107.975 Y118.842 E.02511
G1 X101.158 Y112.025 E.48995
G1 X101.158 Y112.519 E.02511
G1 X107.481 Y118.842 E.45444
G1 X106.988 Y118.842 E.02505
G1 X101.158 Y113.012 E.41901
G1 X101.158 Y113.506 E.02511
G1 X106.494 Y118.842 E.38351
G1 X106 Y118.842 E.02511
G1 X101.158 Y114 E.348
G1 X101.158 Y114.494 E.02511
G1 X105.506 Y118.842 E.3125
G1 X105.012 Y118.842 E.02511
G1 X101.158 Y114.988 E.27699
G1 X101.158 Y115.482 E.02511
G1 X104.518 Y118.842 E.24149
G1 X104.024 Y118.842 E.02511
G1 X101.158 Y115.976 E.20598
G1 X101.158 Y116.47 E.02511
G1 X103.53 Y118.842 E.17048
G1 X103.036 Y118.842 E.02511
G1 X101.158 Y116.964 E.13497
G1 X101.158 Y117.458 E.02511
G1 X102.542 Y118.842 E.09947
G1 X102.048 Y118.842 E.02511
G1 X101.158 Y117.952 E.06397
G1 X101.158 Y118.446 E.02511
G1 X101.71 Y118.997 E.03964
M106 S96.9
;LAYER_CHANGE
;Z:0.55
;HEIGHT:0.2
;BEFORE_LAYER_CHANGE
G92 E0.0
;0.55


;WIPE_START
G1 F6240
G1 X101.158 Y118.446 E-.3206
G1 X101.158 Y117.952 E-.20306
G1 X101.289 Y118.083 E-.07634
;WIPE_END
G1 Z.75 F7800
;AFTER_LAYER_CHANGE
;0.55
M104 S210 ; set temperature
M140 S60 ; set bed temperature
G1 X118.961 Y118.961
G1 Z.55
G1 E.6 F2700
;TYPE:Perimeter
;WIDTH:0.449999
G1 F3600
G1 X101.039 Y118.961 E.60664
G1 X101.039 Y101.039 E.60664
G1 X118.961 Y101.039 E.60664
G1 X118.961 Y118.901 E.60461
G1 X119.368 Y119.368 F7800
G1 F3600
G1 X100.632 Y119.368 E.63419
G1 X100.632 Y100.632 E.63419
G1 X119.368 Y100.632 E.63419
G1 X119.368 Y119.308 E.63216
G1 X119.775 Y119.775 F7800
;TYPE:External perimeter
G1 F1800
G1 X100.225 Y119.775 E.66174
G1 X100.225 Y100.225 E.66174
G1 X119.775 Y100.225 E.66174
G1 X119.775 Y119.715 E.65971
G1 X119.389 Y119.671 F7800
;WIPE_START
G1 F6240
G1 X118.315 Y119.719 E-.6
;WIPE_END
G1 Z.95 F7800
G1 X101.455 Y101.377
G1 Z.55
G1 E.6 F2700
;TYPE:Solid infill
;WIDTH:0.548766
G1 F1200
G1 X101.41 Y101.333 E.00265
G1 X101.349 Y101.349 E.00265
G1 X101.333 Y101.41 E.00265
G1 X101.377 Y101.455 E.00265
G1 X101.439 Y101.439 E.00269
G1 X101.212 Y102.234 F7800
;WIDTH:0.38292
G1 F1200
G1 X101.141 Y102.215 E.00208
G1 X101.16 Y102.286 E.00208
G1 X101.201 Y102.275 E.0012
;WIDTH:0.41646
G1 X101.273 Y102.182 E.00365
;WIDTH:0.449999
G1 X101.344 Y102.089 E.00396
G1 X102.089 Y101.344 E.03566
G1 X102.182 Y101.273 E.00396
;WIDTH:0.41646
G1 X102.275 Y101.201 E.00365
;WIDTH:0.38292
G1 X102.234 Y101.212 E.0012
G1 X102.215 Y101.141 E.00208
G1 X102.286 Y101.16 E.00208
;WIDTH:0.449999
G1 X102.664 Y101.344 E.01423
G1 X101.344 Y102.664 E.06319
G1 X101.344 Y103.24 E.0195
G1 X103.24 Y101.344 E.09076
G1 X103.816 Y101.344 E.0195
G1 X101.344 Y103.816 E.11833
G1 X101.344 Y104.392 E.0195
G1 X104.392 Y101.344 E.14591
G1 X104.967 Y101.344 E.01946
G1 X101.344 Y104.967 E.17343
G1 X101.344 Y105.543 E.0195
G1 X105.543 Y101.344 E.201
G1 X106.119 Y101.344 E.0195
G1 X101.344 Y106.119 E.22858
G1 X101.344 Y106.694 E.01946
G1 X106.694 Y101.344 E.2561
G1 X107.27 Y101.344 E.0195
G1 X101.344 Y107.27 E.28367
G1 X101.344 Y107.846 E.0195
G1 X107.846 Y101.344 E.31125
G1 X108.421 Y101.344 E.01946
G1 X101.344 Y108.421 E.33877
G1 X101.344 Y108.997 E.0195
G1 X108.997 Y101.344 E.36634
G1 X109.573 Y101.344 E.0195
G1 X101.344 Y109.573 E.39392
G1 X101.344 Y110.149 E.0195
G1 X110.149 Y101.344 E.42149
G1 X110.724 Y101.344 E.01946
M73 P4 R25
G1 X101.344 Y110.724 E.44901
G1 X101.344 Y111.3 E.0195
G1 X111.3 Y101.344 E.47659
G1 X111.876 Y101.344 E.0195
G1 X101.344 Y111.876 E.50416
G1 X101.344 Y112.451 E.01946
G1 X112.451 Y101.344 E.53169
G1 X113.027 Y101.344 E.0195
G1 X101.344 Y113.027 E.55926
G1 X101.344 Y113.603 E.0195
G1 X113.603 Y101.344 E.58683
G1 X114.178 Y101.344 E.01946
G1 X101.344 Y114.178 E.61436
G1 X101.344 Y114.754 E.0195
G1 X114.754 Y101.344 E.64193
G1 X115.33 Y101.344 E.0195
G1 X101.344 Y115.33 E.6695
G1 X101.344 Y115.905 E.01946
G1 X115.906 Y101.344 E.69705
G1 X116.481 Y101.344 E.01946
G1 X101.344 Y116.481 E.7246
G1 X101.344 Y117.057 E.0195
G1 X117.057 Y101.344 E.75217
G1 X117.633 Y101.344 E.0195
G1 X101.344 Y117.633 E.77974
G1 X101.344 Y118.208 E.01946
G1 X118.208 Y101.344 E.80727
G1 X118.812 Y101.218 E.02088
;WIDTH:0.38292
G1 X118.741 Y101.199 E.00208
G1 X118.76 Y101.27 E.00208
G1 X118.801 Y101.259 E.0012
;WIDTH:0.41646
G1 X118.728 Y101.366 E.00402
;WIDTH:0.449999
G1 X118.656 Y101.473 E.00437
G1 X101.473 Y118.656 E.82254
G1 X101.366 Y118.728 E.00437
;WIDTH:0.41646
G1 X101.259 Y118.801 E.00402
;WIDTH:0.38292
G1 X101.218 Y118.812 E.0012
G1 X101.199 Y118.741 E.00208
G1 X101.27 Y118.76 E.00208
;WIDTH:0.449999
G1 X102.049 Y118.656 E.0266
G1 X118.656 Y102.049 E.79497
M73 P5 R25
G1 X118.656 Y102.624 E.01946
G1 X102.624 Y118.656 E.76744
G1 X103.2 Y118.656 E.0195
G1 X118.656 Y103.2 E.73987
G1 X118.656 Y103.776 E.0195
G1 X103.776 Y118.656 E.7123
G1 X104.351 Y118.656 E.01946
G1 X118.656 Y104.351 E.68477
G1 X118.656 Y104.927 E.0195
G1 X104.927 Y118.656 E.6572
G1 X105.503 Y118.656 E.0195
G1 X118.656 Y105.503 E.62963
G1 X118.656 Y106.078 E.01946
G1 X106.078 Y118.656 E.6021
M73 P5 R24
G1 X106.654 Y118.656 E.0195
G1 X118.656 Y106.654 E.57453
G1 X118.656 Y107.23 E.0195
G1 X107.23 Y118.656 E.54696
G1 X107.806 Y118.656 E.0195
G1 X118.656 Y107.806 E.51938
G1 X118.656 Y108.381 E.01946
G1 X108.381 Y118.656 E.49186
G1 X108.957 Y118.656 E.0195
G1 X118.656 Y108.957 E.46429
G1 X118.656 Y109.533 E.0195
G1 X109.533 Y118.656 E.43671
G1 X110.108 Y118.656 E.01946
G1 X118.656 Y110.108 E.40919
G1 X118.656 Y110.684 E.0195
G1 X110.684 Y118.656 E.38161
G1 X111.26 Y118.656 E.0195
G1 X118.656 Y111.26 E.35404
G1 X118.656 Y111.835 E.01946
G1 X111.835 Y118.656 E.32652
G1 X112.411 Y118.656 E.0195
G1 X118.656 Y112.411 E.29894
G1 X118.656 Y112.987 E.0195
G1 X112.987 Y118.656 E.27137
G1 X113.563 Y118.656 E.0195
G1 X118.656 Y113.563 E.2438
M73 P6 R24
G1 X118.656 Y114.138 E.01946
G1 X114.138 Y118.656 E.21627
G1 X114.714 Y118.656 E.0195
G1 X118.656 Y114.714 E.1887
G1 X118.656 Y115.29 E.0195
G1 X115.29 Y118.656 E.16113
G1 X115.865 Y118.656 E.01946
G1 X118.656 Y115.865 E.1336
G1 X118.656 Y116.441 E.0195
G1 X116.441 Y118.656 E.10603
G1 X117.017 Y118.656 E.0195
G1 X118.656 Y117.017 E.07846
G1 X118.656 Y117.592 E.01946
G1 X117.592 Y118.656 E.05093
G1 X118.053 Y118.818 E.01654
;WIDTH:0.38292
G1 X117.982 Y118.799 E.00208
G1 X118.001 Y118.87 E.00208
G1 X118.042 Y118.859 E.0012
;WIDTH:0.41646
G1 X118.105 Y118.757 E.00372
;WIDTH:0.449999
G1 X118.168 Y118.656 E.00403
G1 X118.656 Y118.168 E.02336
G1 X118.757 Y118.105 E.00403
;WIDTH:0.41646
G1 X118.859 Y118.042 E.00372
;WIDTH:0.38292
G1 X118.818 Y118.053 E.0012
G1 X118.799 Y117.982 E.00208
G1 X118.87 Y118.001 E.00208
M106 S191.25
;LAYER_CHANGE
;Z:0.75
;HEIGHT:0.2
;BEFORE_LAYER_CHANGE
G92 E0.0
;0.75


;WIPE_START
G1 F6240
G1 X118.799 Y117.982 E-.03021
G1 X118.818 Y118.053 E-.03021
G1 X118.859 Y118.042 E-.01745
G1 X118.757 Y118.105 E-.04928
G1 X118.656 Y118.168 E-.04893
G1 X118.168 Y118.656 E-.28369
G1 X118.105 Y118.757 E-.04893
G1 X118.042 Y118.859 E-.04928
G1 X118.001 Y118.87 E-.01745
G1 X117.986 Y118.812 E-.02457
;WIPE_END
G1 Z.95 F7800
;AFTER_LAYER_CHANGE
;0.75
G1 X118.961 Y118.961
G1 Z.75
G1 E.6 F2700
;TYPE:Perimeter
;WIDTH:0.449999
G1 F3600
G1 X101.039 Y118.961 E.60664
G1 X101.039 Y101.039 E.60664
G1 X118.961 Y101.039 E.60664
G1 X118.961 Y118.901 E.60461
G1 X119.368 Y119.368 F7800
G1 F3600
G1 X100.632 Y119.368 E.63419
G1 X100.632 Y100.632 E.63419
G1 X119.368 Y100.632 E.63419
G1 X119.368 Y119.308 E.63216
G1 X119.775 Y119.775 F7800
;TYPE:External perimeter
G1 F1800
G1 X100.225 Y119.775 E.66174
G1 X100.225 Y100.225 E.66174
G1 X119.775 Y100.225 E.66174
G1 X119.775 Y119.715 E.65971
G1 X119.389 Y119.671 F7800
;WIPE_START
G1 F6240
G1 X118.315 Y119.719 E-.6
;WIPE_END
G1 Z1.15 F7800
G1 X101.377 Y118.545
G1 Z.75
G1 E.6 F2700
;TYPE:Solid infill
;WIDTH:0.548766
G1 F1200
G1 X101.333 Y118.59 E.00265
G1 X101.349 Y118.651 E.00265
G1 X101.41 Y118.667 E.00265
G1 X101.455 Y118.623 E.00265
G1 X101.439 Y118.561 E.00269
G1 X102.234 Y118.788 F7800
;WIDTH:0.38292
G1 F1200
G1 X102.215 Y118.859 E.00208
G1 X102.286 Y118.84 E.00208
G1 X102.275 Y118.799 E.0012
;WIDTH:0.41646
G1 X102.182 Y118.727 E.00365
;WIDTH:0.449999
G1 X102.089 Y118.656 E.00396
G1 X101.344 Y117.911 E.03566
G1 X101.273 Y117.818 E.00396
;WIDTH:0.41646
G1 X101.201 Y117.725 E.00365
;WIDTH:0.38292
G1 X101.212 Y117.766 E.0012
G1 X101.141 Y117.785 E.00208
G1 X101.16 Y117.714 E.00208
;WIDTH:0.449999
G1 X101.344 Y117.336 E.01423
G1 X102.664 Y118.656 E.06319
G1 X103.24 Y118.656 E.0195
G1 X101.344 Y116.76 E.09076
G1 X101.344 Y116.184 E.0195
G1 X103.816 Y118.656 E.11833
G1 X104.392 Y118.656 E.0195
G1 X101.344 Y115.608 E.14591
G1 X101.344 Y115.033 E.01946
G1 X104.967 Y118.656 E.17343
G1 X105.543 Y118.656 E.0195
G1 X101.344 Y114.457 E.201
G1 X101.344 Y113.881 E.0195
G1 X106.119 Y118.656 E.22858
G1 X106.694 Y118.656 E.01946
G1 X101.344 Y113.306 E.2561
G1 X101.344 Y112.73 E.0195
G1 X107.27 Y118.656 E.28367
G1 X107.846 Y118.656 E.0195
G1 X101.344 Y112.154 E.31125
G1 X101.344 Y111.579 E.01946
G1 X108.421 Y118.656 E.33877
G1 X108.997 Y118.656 E.0195
G1 X101.344 Y111.003 E.36634
G1 X101.344 Y110.427 E.0195
G1 X109.573 Y118.656 E.39392
G1 X110.149 Y118.656 E.0195
G1 X101.344 Y109.851 E.42149
G1 X101.344 Y109.276 E.01946
G1 X110.724 Y118.656 E.44901
G1 X111.3 Y118.656 E.0195
G1 X101.344 Y108.7 E.47659
G1 X101.344 Y108.124 E.0195
G1 X111.876 Y118.656 E.50416
M73 P7 R24
G1 X112.451 Y118.656 E.01946
G1 X101.344 Y107.549 E.53169
G1 X101.344 Y106.973 E.0195
G1 X113.027 Y118.656 E.55926
G1 X113.603 Y118.656 E.0195
G1 X101.344 Y106.397 E.58683
G1 X101.344 Y105.822 E.01946
G1 X114.178 Y118.656 E.61436
G1 X114.754 Y118.656 E.0195
G1 X101.344 Y105.246 E.64193
G1 X101.344 Y104.67 E.0195
G1 X115.33 Y118.656 E.6695
G1 X115.906 Y118.656 E.0195
G1 X101.344 Y104.095 E.69705
G1 X101.344 Y103.519 E.0195
G1 X116.481 Y118.656 E.7246
G1 X117.057 Y118.656 E.0195
G1 X101.344 Y102.943 E.75217
G1 X101.344 Y102.367 E.0195
G1 X117.633 Y118.656 E.77974
G1 X118.208 Y118.656 E.01946
G1 X101.344 Y101.792 E.80727
G1 X101.218 Y101.188 E.02088
;WIDTH:0.38292
G1 X101.199 Y101.259 E.00208
G1 X101.27 Y101.24 E.00208
