; generated by PrusaSlicer 2.6.0-rc1+win64 on 2023-06-10 at 11:24:44 UTC

; 

; external perimeters extrusion width = 0.45mm
; perimeters extrusion width = 0.45mm
; infill extrusion width = 0.45mm
; solid infill extrusion width = 0.45mm
; top infill extrusion width = 0.40mm
; first layer extrusion width = 0.42mm

;TYPE:Custom
M109 S0
M190 S0
start_print EXTRUDER_TEMP=210 BED_TEMP=60
G21 ; set units to millimeters
G90 ; use absolute coordinates
M82 ; use absolute distances for extrusion
G92 E0
; Filament gcode
M107
;LAYER_CHANGE
;Z:0.35
;HEIGHT:0.35
G1 Z.35 F7800
G1 E-2 F2400
G92 E0
G1 X94.851 Y95.729 F7800
G1 E2 F2400
;TYPE:Skirt/Brim
;WIDTH:0.42
G1 F1800
G1 X96.606 Y94.235 E2.11567
G1 X98.764 Y93.425 E2.23135
G1 X100 Y93.31 E2.29365
G1 X120 Y93.31 E3.29737
G1 X122.27 Y93.707 E3.41302
G1 X124.271 Y94.851 E3.5287
G1 X125.765 Y96.606 E3.64437
G1 X126.575 Y98.764 E3.76005
G1 X126.69 Y100 E3.82235
G1 X126.69 Y120 E4.82607
G1 X126.293 Y122.27 E4.94172
G1 X125.149 Y124.271 E5.0574
G1 X123.394 Y125.765 E5.17307
G1 X121.236 Y126.575 E5.28875
G1 X120 Y126.69 E5.35105
G1 X100 Y126.69 E6.35477
G1 X97.73 Y126.293 E6.47042
G1 X95.729 Y125.149 E6.5861
G1 X94.235 Y123.394 E6.70177
G1 X93.425 Y121.236 E6.81745
G1 X93.31 Y120 E6.87975
G1 X93.31 Y100 E7.88347
G1 X93.707 Y97.73 E7.99912
G1 X94.821 Y95.781 E8.11178
G1 X95.131 Y95.964 F7800
G1 F1800
G1 X95.193 Y95.859 E8.1179
G1 X96.935 Y94.444 E8.23053
G1 X100 Y93.655 E8.38936
G1 X120 Y93.655 E9.39308
G1 X122.209 Y94.052 E9.50572
G1 X124.141 Y95.193 E9.61833
G1 X125.556 Y96.935 E9.73096
G1 X126.345 Y100 E9.88979
G1 X126.345 Y120 E10.89351
G1 X125.948 Y122.209 E11.00615
G1 X124.807 Y124.141 E11.11876
G1 X123.065 Y125.556 E11.23139
G1 X120 Y126.345 E11.39022
G1 X100 Y126.345 E12.39394
G1 X97.791 Y125.948 E12.50658
G1 X95.859 Y124.807 E12.61919
G1 X94.444 Y123.065 E12.73182
G1 X93.655 Y120 E12.89065
G1 X93.655 Y100 E13.89437
G1 X94.052 Y97.791 E14.00701
G1 X95.1 Y96.015 E14.1105
G1 E12.1105 F2400
G92 E0
G1 X119.1 Y119.1 F7800
G1 E2 F2400
;TYPE:Perimeter
;WIDTH:0.42
G1 F1800
G1 X100.9 Y119.1 E2.91338
G1 X100.9 Y100.9 E3.82676
G1 X119.1 Y100.9 E4.74014
G1 X119.1 Y119.04 E5.65051
G1 X119.445 Y119.445 F7800
G1 F1800
G1 X100.555 Y119.445 E6.59852
G1 X100.555 Y100.555 E7.54653
G1 X119.445 Y100.555 E8.49454
G1 X119.445 Y119.385 E9.43954
G1 X119.79 Y119.79 F7800
;TYPE:External perimeter
G1 F1800
G1 X100.21 Y119.79 E10.42218
G1 X100.21 Y100.21 E11.40482
G1 X119.79 Y100.21 E12.38746
G1 X119.79 Y119.73 E13.36709
G1 X119.404 Y119.686 F7800
G1 E11.36709 F2400
G92 E0
G1 X118.29 Y101.003 F7800
G1 E2 F2400
;TYPE:Solid infill
;WIDTH:0.424363
G1 F1800
G1 X118.842 Y101.555 E2.03967
G1 X118.842 Y102.048 E2.06472
G1 X117.952 Y101.158 E2.12869
G1 X117.458 Y101.158 E2.1538
G1 X118.842 Y102.542 E2.25327
G1 X118.842 Y103.036 E2.27838
G1 X116.964 Y101.158 E2.41335
G1 X116.47 Y101.158 E2.43846
G1 X118.842 Y103.53 E2.60894
G1 X118.842 Y104.024 E2.63405
G1 X115.976 Y101.158 E2.84003
G1 X115.482 Y101.158 E2.86514
G1 X118.842 Y104.518 E3.10663
G1 X118.842 Y105.012 E3.13174
G1 X114.988 Y101.158 E3.40873
G1 X114.494 Y101.158 E3.43384
G1 X118.842 Y105.506 E3.74634
G1 X118.842 Y106 E3.77145
G1 X114 Y101.158 E4.11945
G1 X113.506 Y101.158 E4.14456
G1 X118.842 Y106.494 E4.52807
G1 X118.842 Y106.988 E4.55318
G1 X113.012 Y101.158 E4.97219
G1 X112.518 Y101.158 E4.9973
G1 X118.842 Y107.482 E5.45181
G1 X118.842 Y107.975 E5.47686
G1 X112.025 Y101.158 E5.96681
G1 X111.531 Y101.158 E5.99192
G1 X118.842 Y108.469 E6.51737
G1 X118.842 Y108.963 E6.54248
G1 X111.037 Y101.158 E7.10344
G1 X110.543 Y101.158 E7.12855
G1 X118.842 Y109.457 E7.72501
G1 X118.842 Y109.951 E7.75012
G1 X110.049 Y101.158 E8.38208
G1 X109.555 Y101.158 E8.40719
G1 X118.842 Y110.445 E9.07466
G1 X118.842 Y110.939 E9.09977
G1 X109.061 Y101.158 E9.80274
G1 X108.567 Y101.158 E9.82785
G1 X118.842 Y111.433 E10.56633
G1 X118.842 Y111.927 E10.59144
G1 X108.073 Y101.158 E11.36542
G1 X107.579 Y101.158 E11.39053
G1 X118.842 Y112.421 E12.20002
G1 X118.842 Y112.915 E12.22513
G1 X107.085 Y101.158 E13.07012
G1 X106.591 Y101.158 E13.09523
G1 X118.842 Y113.409 E13.97573
G1 X118.842 Y113.902 E14.00078
G1 X106.098 Y101.158 E14.91671
G1 X105.604 Y101.158 E14.94182
G1 X118.842 Y114.396 E15.89325
G1 X118.842 Y114.89 E15.91836
G1 X105.11 Y101.158 E16.9053
G1 X104.616 Y101.158 E16.93041
G1 X118.842 Y115.384 E17.95285
G1 X118.842 Y115.878 E17.97796
G1 X104.122 Y101.158 E19.03591
G1 X103.628 Y101.158 E19.06102
G1 X118.842 Y116.372 E20.15447
G1 X118.842 Y116.866 E20.17958
G1 X103.134 Y101.158 E21.30854
G1 X102.64 Y101.158 E21.33365
G1 X118.842 Y117.36 E22.49811
G1 X118.842 Y117.854 E22.52322
G1 X102.146 Y101.158 E23.72318
G1 X101.652 Y101.158 E23.74829
G1 X118.842 Y118.348 E24.98376
G1 X118.842 Y118.842 E25.00887
G1 X101.158 Y101.158 E26.27984
G1 X101.158 Y101.652 E26.30495
G1 X118.348 Y118.842 E27.54042
G1 X117.854 Y118.842 E27.56553
G1 X101.158 Y102.146 E28.76549
G1 X101.158 Y102.64 E28.7906
G1 X117.36 Y118.842 E29.95506
G1 X116.866 Y118.842 E29.98017
G1 X101.158 Y103.134 E31.10913
G1 X101.158 Y103.628 E31.13424
G1 X116.372 Y118.842 E32.22769
G1 X115.878 Y118.842 E32.2528
G1 X101.158 Y104.122 E33.31075
G1 X101.158 Y104.616 E33.33586
G1 X115.384 Y118.842 E34.3583
G1 X114.89 Y118.842 E34.38341
G1 X101.158 Y105.11 E35.37035
G1 X101.158 Y105.604 E35.39546
G1 X114.396 Y118.842 E36.34689
G1 X113.902 Y118.842 E36.372
G1 X101.158 Y106.098 E37.28793
G1 X101.158 Y106.592 E37.31304
G1 X113.408 Y118.842 E38.19346
G1 X112.915 Y118.842 E38.21851
G1 X101.158 Y107.085 E39.0635
G1 X101.158 Y107.579 E39.08861
G1 X112.421 Y118.842 E39.8981
G1 X111.927 Y118.842 E39.92321
G1 X101.158 Y108.073 E40.69719
G1 X101.158 Y108.567 E40.7223
G1 X111.433 Y118.842 E41.46078
G1 X110.939 Y118.842 E41.48589
G1 X101.158 Y109.061 E42.18886
G1 X101.158 Y109.555 E42.21397
G1 X110.445 Y118.842 E42.88144
G1 X109.951 Y118.842 E42.90655
G1 X101.158 Y110.049 E43.53851
G1 X101.158 Y110.543 E43.56362
G1 X109.457 Y118.842 E44.16008
G1 X108.963 Y118.842 E44.18519
G1 X101.158 Y111.037 E44.74615
G1 X101.158 Y111.531 E44.77126
G1 X108.469 Y118.842 E45.29671
G1 X107.975 Y118.842 E45.32182
G1 X101.158 Y112.025 E45.81177
G1 X101.158 Y112.519 E45.83688
G1 X107.481 Y118.842 E46.29132
G1 X106.988 Y118.842 E46.31637
G1 X101.158 Y113.012 E46.73538
G1 X101.158 Y113.506 E46.76049
G1 X106.494 Y118.842 E47.144
G1 X106 Y118.842 E47.16911
G1 X101.158 Y114 E47.51711
G1 X101.158 Y114.494 E47.54222
G1 X105.506 Y118.842 E47.85472
G1 X105.012 Y118.842 E47.87983
G1 X101.158 Y114.988 E48.15682
G1 X101.158 Y115.482 E48.18193
G1 X104.518 Y118.842 E48.42342
G1 X104.024 Y118.842 E48.44853
G1 X101.158 Y115.976 E48.65451
G1 X101.158 Y116.47 E48.67962
G1 X103.53 Y118.842 E48.8501
G1 X103.036 Y118.842 E48.87521
G1 X101.158 Y116.964 E49.01018
G1 X101.158 Y117.458 E49.03529
G1 X102.542 Y118.842 E49.13476
G1 X102.048 Y118.842 E49.15987
G1 X101.158 Y117.952 E49.22384
G1 X101.158 Y118.446 E49.24895
G1 X101.71 Y118.997 E49.28859
;LAYER_CHANGE
;Z:0.55
;HEIGHT:0.2
G1 Z.55 F7800
M140 S60 ; set bed temperature
G1 E47.28859 F2400
G92 E0
G1 X118.961 Y118.961 F7800
G1 E2 F2400
;TYPE:Perimeter
;WIDTH:0.449999
G1 F3600
G1 X101.039 Y118.961 E2.60664
G1 X101.039 Y101.039 E3.21328
G1 X118.961 Y101.039 E3.81992
G1 X118.961 Y118.901 E4.42453
G1 X119.368 Y119.368 F7800
G1 F3600
G1 X100.632 Y119.368 E5.05872
G1 X100.632 Y100.632 E5.69291
G1 X119.368 Y100.632 E6.3271
G1 X119.368 Y119.308 E6.95926
G1 X119.775 Y119.775 F7800
;TYPE:External perimeter
G1 F1800
G1 X100.225 Y119.775 E7.621
G1 X100.225 Y100.225 E8.28274
G1 X119.775 Y100.225 E8.94448
G1 X119.775 Y119.715 E9.60419
G1 X119.389 Y119.671 F7800
G1 E7.60419 F2400
G92 E0
G1 X101.455 Y101.377 F7800
G1 E2 F2400
;TYPE:Solid infill
;WIDTH:0.548766
G1 F1200
G1 X101.41 Y101.333 E2.00265
G1 X101.349 Y101.349 E2.0053
G1 X101.333 Y101.41 E2.00795
G1 X101.377 Y101.455 E2.0106
G1 X101.439 Y101.439 E2.01329
G1 X101.212 Y102.234 F7800
;WIDTH:0.38292
G1 F1200
G1 X101.141 Y102.215 E2.01537
G1 X101.16 Y102.286 E2.01745
G1 X101.201 Y102.275 E2.01865
;WIDTH:0.41646
G1 X101.273 Y102.182 E2.0223
;WIDTH:0.449999
G1 X101.344 Y102.089 E2.02626
G1 X102.089 Y101.344 E2.06192
G1 X102.182 Y101.273 E2.06588
;WIDTH:0.41646
G1 X102.275 Y101.201 E2.06953
;WIDTH:0.38292
G1 X102.234 Y101.212 E2.07073
G1 X102.215 Y101.141 E2.07281
G1 X102.286 Y101.16 E2.07489
;WIDTH:0.449999
G1 X102.664 Y101.344 E2.08912
G1 X101.344 Y102.664 E2.15231
G1 X101.344 Y103.24 E2.17181
G1 X103.24 Y101.344 E2.26257
G1 X103.816 Y101.344 E2.28207
G1 X101.344 Y103.816 E2.4004
G1 X101.344 Y104.392 E2.4199
G1 X104.392 Y101.344 E2.56581
G1 X104.967 Y101.344 E2.58527
G1 X101.344 Y104.967 E2.7587
G1 X101.344 Y105.543 E2.7782
G1 X105.543 Y101.344 E2.9792
G1 X106.119 Y101.344 E2.9987
G1 X101.344 Y106.119 E3.22728
G1 X101.344 Y106.694 E3.24674
G1 X106.694 Y101.344 E3.50284
G1 X107.27 Y101.344 E3.52234
G1 X101.344 Y107.27 E3.80601
G1 X101.344 Y107.846 E3.82551
G1 X107.846 Y101.344 E4.13676
G1 X108.421 Y101.344 E4.15622
G1 X101.344 Y108.421 E4.49499
G1 X101.344 Y108.997 E4.51449
G1 X108.997 Y101.344 E4.88083
G1 X109.573 Y101.344 E4.90033
G1 X101.344 Y109.573 E5.29425
G1 X101.344 Y110.149 E5.31375
G1 X110.149 Y101.344 E5.73524
G1 X110.724 Y101.344 E5.7547
G1 X101.344 Y110.724 E6.20371
G1 X101.344 Y111.3 E6.22321
G1 X111.3 Y101.344 E6.6998
G1 X111.876 Y101.344 E6.7193
G1 X101.344 Y111.876 E7.22346
G1 X101.344 Y112.451 E7.24292
G1 X112.451 Y101.344 E7.77461
G1 X113.027 Y101.344 E7.79411
G1 X101.344 Y113.027 E8.35337
G1 X101.344 Y113.603 E8.37287
G1 X113.603 Y101.344 E8.9597
G1 X114.178 Y101.344 E8.97916
G1 X101.344 Y114.178 E9.59352
G1 X101.344 Y114.754 E9.61302
G1 X114.754 Y101.344 E10.25495
G1 X115.33 Y101.344 E10.27445
G1 X101.344 Y115.33 E10.94395
G1 X101.344 Y115.905 E10.96341
G1 X115.906 Y101.344 E11.66046
G1 X116.481 Y101.344 E11.67992
G1 X101.344 Y116.481 E12.40452
G1 X101.344 Y117.057 E12.42402
G1 X117.057 Y101.344 E13.17619
G1 X117.633 Y101.344 E13.19569
G1 X101.344 Y117.633 E13.97543
G1 X101.344 Y118.208 E13.99489
G1 X118.208 Y101.344 E14.80216
G1 X118.812 Y101.218 E14.82304
;WIDTH:0.38292
G1 X118.741 Y101.199 E14.82512
G1 X118.76 Y101.27 E14.8272
G1 X118.801 Y101.259 E14.8284
;WIDTH:0.41646
G1 X118.728 Y101.366 E14.83242
;WIDTH:0.449999
G1 X118.656 Y101.473 E14.83679
G1 X101.473 Y118.656 E15.65933
G1 X101.366 Y118.728 E15.6637
;WIDTH:0.41646
G1 X101.259 Y118.801 E15.66772
;WIDTH:0.38292
G1 X101.218 Y118.812 E15.66892
G1 X101.199 Y118.741 E15.671
G1 X101.27 Y118.76 E15.67308
;WIDTH:0.449999
G1 X102.049 Y118.656 E15.69968
G1 X118.656 Y102.049 E16.49465
G1 X118.656 Y102.624 E16.51411
G1 X102.624 Y118.656 E17.28155
G1 X103.2 Y118.656 E17.30105
G1 X118.656 Y103.2 E18.04092
G1 X118.656 Y103.776 E18.06042
G1 X103.776 Y118.656 E18.77272
G1 X104.351 Y118.656 E18.79218
G1 X118.656 Y104.351 E19.47695
G1 X118.656 Y104.927 E19.49645
G1 X104.927 Y118.656 E20.15365
G1 X105.503 Y118.656 E20.17315
G1 X118.656 Y105.503 E20.80278
G1 X118.656 Y106.078 E20.82224
G1 X106.078 Y118.656 E21.42434
G1 X106.654 Y118.656 E21.44384
G1 X118.656 Y106.654 E22.01837
G1 X118.656 Y107.23 E22.03787
G1 X107.23 Y118.656 E22.58483
G1 X107.806 Y118.656 E22.60433
G1 X118.656 Y107.806 E23.12371
G1 X118.656 Y108.381 E23.14317
G1 X108.381 Y118.656 E23.63503
G1 X108.957 Y118.656 E23.65453
G1 X118.656 Y108.957 E24.11882
G1 X118.656 Y109.533 E24.13832
G1 X109.533 Y118.656 E24.57503
G1 X110.108 Y118.656 E24.59449
G1 X118.656 Y110.108 E25.00368
G1 X118.656 Y110.684 E25.02318
G1 X110.684 Y118.656 E25.40479
G1 X111.26 Y118.656 E25.42429
G1 X118.656 Y111.26 E25.77833
G1 X118.656 Y111.835 E25.79779
G1 X111.835 Y118.656 E26.12431
G1 X112.411 Y118.656 E26.14381
G1 X118.656 Y112.411 E26.44275
G1 X118.656 Y112.987 E26.46225
G1 X112.987 Y118.656 E26.73362
G1 X113.563 Y118.656 E26.75312
G1 X118.656 Y113.563 E26.99692
G1 X118.656 Y114.138 E27.01638
G1 X114.138 Y118.656 E27.23265
G1 X114.714 Y118.656 E27.25215
G1 X118.656 Y114.714 E27.44085
G1 X118.656 Y115.29 E27.46035
G1 X115.29 Y118.656 E27.62148
G1 X115.865 Y118.656 E27.64094
G1 X118.656 Y115.865 E27.77454
G1 X118.656 Y116.441 E27.79404
G1 X116.441 Y118.656 E27.90007
G1 X117.017 Y118.656 E27.91957
G1 X118.656 Y117.017 E27.99803
G1 X118.656 Y117.592 E28.01749
G1 X117.592 Y118.656 E28.06842
G1 X118.053 Y118.818 E28.08496
;WIDTH:0.38292
G1 X117.982 Y118.799 E28.08704
G1 X118.001 Y118.87 E28.08912
G1 X118.042 Y118.859 E28.09032
;WIDTH:0.41646
G1 X118.105 Y118.757 E28.09404
;WIDTH:0.449999
G1 X118.168 Y118.656 E28.09807
G1 X118.656 Y118.168 E28.12143
G1 X118.757 Y118.105 E28.12546
;WIDTH:0.41646
G1 X118.859 Y118.042 E28.12918
;WIDTH:0.38292
G1 X118.818 Y118.053 E28.13038
G1 X118.799 Y117.982 E28.13246
G1 X118.87 Y118.001 E28.13454
;LAYER_CHANGE
;Z:0.75
;HEIGHT:0.2
G1 Z.75 F7800
G1 X118.961 Y118.961
;TYPE:Perimeter
;WIDTH:0.449999
G1 F3600
G1 X101.039 Y118.961 E28.74118
G1 X101.039 Y101.039 E29.34782
G1 X118.961 Y101.039 E29.95446
G1 X118.961 Y118.901 E30.55907
G1 X119.368 Y119.368 F7800
G1 F3600
G1 X100.632 Y119.368 E31.19326
G1 X100.632 Y100.632 E31.82745
G1 X119.368 Y100.632 E32.46164
G1 X119.368 Y119.308 E33.0938
G1 X119.775 Y119.775 F7800
;TYPE:External perimeter
G1 F1800
G1 X100.225 Y119.775 E33.75554
G1 X100.225 Y100.225 E34.41728
G1 X119.775 Y100.225 E35.07902
G1 X119.775 Y119.715 E35.73873
G1 X119.389 Y119.671 F7800
G1 E33.73873 F2400
G92 E0
G1 X101.377 Y118.545 F7800
G1 E2 F2400
;TYPE:Solid infill
;WIDTH:0.548766
G1 F1200
G1 X101.333 Y118.59 E2.00265
G1 X101.349 Y118.651 E2.0053
G1 X101.41 Y118.667 E2.00795
G1 X101.455 Y118.623 E2.0106
G1 X101.439 Y118.561 E2.01329
G1 X102.234 Y118.788 F7800
;WIDTH:0.38292
G1 F1200
G1 X102.215 Y118.859 E2.01537
G1 X102.286 Y118.84 E2.01745
G1 X102.275 Y118.799 E2.01865
;WIDTH:0.41646
G1 X102.182 Y118.727 E2.0223
;WIDTH:0.449999
G1 X102.089 Y118.656 E2.02626
G1 X101.344 Y117.911 E2.06192
G1 X101.273 Y117.818 E2.06588
;WIDTH:0.41646
G1 X101.201 Y117.725 E2.06953
;WIDTH:0.38292
G1 X101.212 Y117.766 E2.07073
G1 X101.141 Y117.785 E2.07281
G1 X101.16 Y117.714 E2.07489
;WIDTH:0.449999
G1 X101.344 Y117.336 E2.08912
G1 X102.664 Y118.656 E2.15231
G1 X103.24 Y118.656 E2.17181
G1 X101.344 Y116.76 E2.26257
G1 X101.344 Y116.184 E2.28207
G1 X103.816 Y118.656 E2.4004
G1 X104.392 Y118.656 E2.4199
G1 X101.344 Y115.608 E2.56581
G1 X101.344 Y115.033 E2.58527
G1 X104.967 Y118.656 E2.7587
G1 X105.543 Y118.656 E2.7782
G1 X101.344 Y114.457 E2.9792
G1 X101.344 Y113.881 E2.9987
G1 X106.119 Y118.656 E3.22728
G1 X106.694 Y118.656 E3.24674
G1 X101.344 Y113.306 E3.50284
G1 X101.344 Y112.73 E3.52234
G1 X107.27 Y118.656 E3.80601
G1 X107.846 Y118.656 E3.82551
G1 X101.344 Y112.154 E4.13676
G1 X101.344 Y111.579 E4.15622
G1 X108.421 Y118.656 E4.49499
G1 X108.997 Y118.656 E4.51449
G1 X101.344 Y111.003 E4.88083
G1 X101.344 Y110.427 E4.90033
G1 X109.573 Y118.656 E5.29425
G1 X110.149 Y118.656 E5.31375
G1 X101.344 Y109.851 E5.73524
G1 X101.344 Y109.276 E5.7547
G1 X110.724 Y118.656 E6.20371
G1 X111.3 Y118.656 E6.22321
G1 X101.344 Y108.7 E6.6998
G1 X101.344 Y108.124 E6.7193
G1 X111.876 Y118.656 E7.22346
G1 X112.451 Y118.656 E7.24292
G1 X101.344 Y107.549 E7.77461
G1 X101.344 Y106.973 E7.79411
G1 X113.027 Y118.656 E8.35337
G1 X113.603 Y118.656 E8.37287
G1 X101.344 Y106.397 E8.9597
G1 X101.344 Y105.822 E8.97916
G1 X114.178 Y118.656 E9.59352
G1 X114.754 Y118.656 E9.61302
G1 X101.344 Y105.246 E10.25495
G1 X101.344 Y104.67 E10.27445
G1 X115.33 Y118.656 E10.94395
G1 X115.906 Y118.656 E10.96345
G1 X101.344 Y104.095 E11.6605
G1 X101.344 Y103.519 E11.68
G1 X116.481 Y118.656 E12.4046
G1 X117.057 Y118.656 E12.4241
G1 X101.344 Y102.943 E13.17627
G1 X101.344 Y102.367 E13.19577
G1 X117.633 Y118.656 E13.97551
G1 X118.208 Y118.656 E13.99497
G1 X101.344 Y101.792 E14.80224
G1 X101.218 Y101.188 E14.82312
;WIDTH:0.38292
G1 X101.199 Y101.259 E14.8252
G1 X101.27 Y101.24 E14.82728
G1 X101.259 Y101.199 E14.82848
;WIDTH:0.41646
G1 X101.366 Y101.272 E14.8325
;WIDTH:0.449999
G1 X101.473 Y101.344 E14.83687
G1 X118.656 Y118.527 E15.65941
G1 X118.728 Y118.634 E15.66378
;WIDTH:0.41646
G1 X118.801 Y118.741 E15.6678
;WIDTH:0.38292
G1 X118.812 Y118.782 E15.669
G1 X118.741 Y118.801 E15.67108
G1 X118.76 Y118.73 E15.67316
