; generated by PrusaSlicer 2.6.1+win64 on 2023-11-22 at 22:03:33 UTC


;
;
; 

; external perimeters extrusion width = 0.45mm
; perimeters extrusion width = 0.45mm
; infill extrusion width = 0.45mm
; solid infill extrusion width = 0.45mm
; top infill extrusion width = 0.40mm
; first layer extrusion width = 0.42mm

M73 P0 R24
;TYPE:Custom
M109 S0
M190 S0
START_PRINT EXTRUDER_TEMP=210 BED_TEMP=60
G21 ; set units to millimeters
G90 ; use absolute coordinates
M83 ; use relative distances for extrusion
; Filament gcode
M107
;LAYER_CHANGE
;Z:0.2
;HEIGHT:0.2
;BEFORE_LAYER_CHANGE
G92 E0.0
;0.2


G1 E-.8 F2100
G1 Z.4 F720
;AFTER_LAYER_CHANGE
;0.2
G1 X97.639 Y98.583 F10800
G1 Z.2 F720
G1 E.8 F2100
M204 S800
;TYPE:Skirt/Brim
;WIDTH:0.42
G1 F1200
G1 X98.705 Y97.569 E.04613
G1 X100 Y97.246 E.04185
G1 X120 Y97.246 E.62709
G1 X121.417 Y97.639 E.04611
G1 X122.431 Y98.705 E.04613
G1 X122.754 Y100 E.04185
G1 X122.754 Y120 E.62709
G1 X122.361 Y121.417 E.04611
G1 X121.295 Y122.431 E.04613
G1 X120 Y122.754 E.04185
G1 X100 Y122.754 E.62709
G1 X98.583 Y122.361 E.04611
G1 X97.569 Y121.295 E.04613
G1 X97.246 Y120 E.04185
G1 X97.246 Y100 E.62709
G1 X97.623 Y98.64 E.04425
M204 S1000
G1 X97.997 Y98.752 F10800
M204 S800
G1 F1200
G1 X98.015 Y98.693 E.00193
G1 X99.06 Y97.817 E.04275
G1 X100 Y97.623 E.03009
G1 X120 Y97.623 E.62709
G1 X121.307 Y98.015 E.04278
G1 X122.183 Y99.06 E.04275
G1 X122.377 Y100 E.03009
G1 X122.377 Y120 E.62709
G1 X121.985 Y121.307 E.04278
G1 X120.94 Y122.183 E.04275
G1 X120 Y122.377 E.03009
G1 X100 Y122.377 E.62709
G1 X98.693 Y121.985 E.04278
G1 X97.817 Y120.94 E.04275
G1 X97.623 Y120 E.03009
G1 X97.623 Y100 E.62709
G1 X97.979 Y98.81 E.03895
M204 S1000
; printing object xyzCalibration_cube.stl id:0 copy 0
;WIPE_START
G1 F8640
G1 X98.015 Y98.693 E-.02827
G1 X99.06 Y97.817 E-.31486
G1 X100 Y97.623 E-.22162
G1 X101.019 Y97.623 E-.23525
;WIPE_END
G1 Z.6 F720
G1 X119.213 Y119.213 F10800
G1 Z.2 F720
G1 E.8 F2100
M204 S800
;TYPE:Perimeter
;WIDTH:0.419999
G1 F1200
G1 X100.787 Y119.213 E.57773
G1 X100.787 Y100.787 E.57773
G1 X119.213 Y100.787 E.57773
G1 X119.213 Y119.153 E.57585
M204 S1000
M73 P1 R24
G1 X119.59 Y119.59 F10800
M204 S800
;TYPE:External perimeter
G1 F1200
G1 X100.41 Y119.59 E.60137
G1 X100.41 Y100.41 E.60137
G1 X119.59 Y100.41 E.60137
G1 X119.59 Y119.53 E.59949
M204 S1000
G1 X119.204 Y119.486 F10800
;WIPE_START
G1 F8640
G1 X116.125 Y119.541 E-.8
;WIPE_END
G1 Z.6 F720
G1 X118.269 Y100.957 F10800
G1 Z.2 F720
G1 E.8 F2100
M204 S800
;TYPE:Solid infill
;WIDTH:0.425479
G1 F1200
G1 X118.874 Y101.561 E.02719
G1 X118.874 Y102.102 E.01721
G1 X117.898 Y101.126 E.04391
G1 X117.357 Y101.126 E.01721
G1 X118.874 Y102.643 E.06824
G1 X118.874 Y103.184 E.01721
G1 X116.816 Y101.126 E.09258
G1 X116.275 Y101.126 E.01721
G1 X118.874 Y103.725 E.11692
G1 X118.874 Y104.266 E.01721
G1 X115.734 Y101.126 E.14126
G1 X115.193 Y101.126 E.01721
G1 X118.874 Y104.807 E.16559
G1 X118.874 Y105.348 E.01721
G1 X114.652 Y101.126 E.18993
G1 X114.111 Y101.126 E.01721
G1 X118.874 Y105.889 E.21427
G1 X118.874 Y106.43 E.01721
G1 X113.57 Y101.126 E.23861
G1 X113.029 Y101.126 E.01721
G1 X118.874 Y106.971 E.26294
G1 X118.874 Y107.512 E.01721
G1 X112.488 Y101.126 E.28728
G1 X111.947 Y101.126 E.01721
G1 X118.874 Y108.053 E.31162
G1 X118.874 Y108.594 E.01721
G1 X111.406 Y101.126 E.33596
G1 X110.865 Y101.126 E.01721
G1 X118.874 Y109.135 E.36029
G1 X118.874 Y109.676 E.01721
G1 X110.324 Y101.126 E.38463
G1 X109.783 Y101.126 E.01721
G1 X118.874 Y110.217 E.40897
G1 X118.874 Y110.758 E.01721
G1 X109.242 Y101.126 E.43331
G1 X108.701 Y101.126 E.01721
G1 X118.874 Y111.299 E.45764
G1 X118.874 Y111.84 E.01721
G1 X108.16 Y101.126 E.48198
G1 X107.619 Y101.126 E.01721
G1 X118.874 Y112.381 E.50632
G1 X118.874 Y112.922 E.01721
G1 X107.078 Y101.126 E.53065
M73 P2 R24
G1 X106.537 Y101.126 E.01721
G1 X118.874 Y113.463 E.55499
G1 X118.874 Y114.004 E.01721
G1 X105.996 Y101.126 E.57933
G1 X105.455 Y101.126 E.01721
G1 X118.874 Y114.545 E.60367
G1 X118.874 Y115.086 E.01721
G1 X104.914 Y101.126 E.628
G1 X104.373 Y101.126 E.01721
G1 X118.874 Y115.627 E.65234
G1 X118.874 Y116.169 E.01724
G1 X103.831 Y101.126 E.67672
G1 X103.29 Y101.126 E.01721
G1 X118.874 Y116.71 E.70106
G1 X118.874 Y117.251 E.01721
G1 X102.749 Y101.126 E.7254
G1 X102.208 Y101.126 E.01721
G1 X118.874 Y117.792 E.74974
G1 X118.874 Y118.333 E.01721
G1 X101.667 Y101.126 E.77407
G1 X101.126 Y101.127 E.01721
G1 X118.873 Y118.874 E.79837
G1 X118.332 Y118.874 E.01721
G1 X101.126 Y101.668 E.77403
G1 X101.126 Y102.209 E.01721
G1 X117.791 Y118.874 E.74969
G1 X117.25 Y118.874 E.01721
M73 P3 R24
G1 X101.126 Y102.75 E.72535
G1 X101.126 Y103.291 E.01721
G1 X116.709 Y118.874 E.70102
G1 X116.168 Y118.874 E.01721
G1 X101.126 Y103.832 E.67668
M73 P3 R23
G1 X101.126 Y104.373 E.01721
G1 X115.627 Y118.874 E.65234
G1 X115.086 Y118.874 E.01721
G1 X101.126 Y104.914 E.628
G1 X101.126 Y105.455 E.01721
G1 X114.545 Y118.874 E.60367
G1 X114.004 Y118.874 E.01721
G1 X101.126 Y105.996 E.57933
G1 X101.126 Y106.537 E.01721
G1 X113.463 Y118.874 E.55499
G1 X112.922 Y118.874 E.01721
G1 X101.126 Y107.078 E.53065
G1 X101.126 Y107.619 E.01721
G1 X112.381 Y118.874 E.50632
G1 X111.84 Y118.874 E.01721
G1 X101.126 Y108.16 E.48198
G1 X101.126 Y108.701 E.01721
G1 X111.299 Y118.874 E.45764
G1 X110.758 Y118.874 E.01721
G1 X101.126 Y109.242 E.43331
G1 X101.126 Y109.783 E.01721
G1 X110.217 Y118.874 E.40897
G1 X109.676 Y118.874 E.01721
G1 X101.126 Y110.324 E.38463
G1 X101.126 Y110.865 E.01721
G1 X109.135 Y118.874 E.36029
G1 X108.594 Y118.874 E.01721
G1 X101.126 Y111.406 E.33596
G1 X101.126 Y111.947 E.01721
M73 P4 R23
G1 X108.053 Y118.874 E.31162
G1 X107.512 Y118.874 E.01721
G1 X101.126 Y112.488 E.28728
G1 X101.126 Y113.029 E.01721
G1 X106.971 Y118.874 E.26294
G1 X106.43 Y118.874 E.01721
G1 X101.126 Y113.57 E.23861
G1 X101.126 Y114.111 E.01721
G1 X105.889 Y118.874 E.21427
G1 X105.348 Y118.874 E.01721
G1 X101.126 Y114.652 E.18993
G1 X101.126 Y115.193 E.01721
G1 X104.807 Y118.874 E.16559
G1 X104.266 Y118.874 E.01721
G1 X101.126 Y115.734 E.14126
G1 X101.126 Y116.275 E.01721
G1 X103.725 Y118.874 E.11692
G1 X103.184 Y118.874 E.01721
G1 X101.126 Y116.816 E.09258
G1 X101.126 Y117.357 E.01721
G1 X102.643 Y118.874 E.06824
G1 X102.102 Y118.874 E.01721
G1 X101.126 Y117.898 E.04391
G1 X101.126 Y118.439 E.01721
G1 X101.731 Y119.043 E.02719
M204 S1000
; stop printing object xyzCalibration_cube.stl id:0 copy 0
M106 S89.25
;LAYER_CHANGE
;Z:0.4
;HEIGHT:0.2
;BEFORE_LAYER_CHANGE
G92 E0.0
;0.4


;WIPE_START
G1 F8640
G1 X101.126 Y118.439 E-.1974
G1 X101.126 Y117.898 E-.12492
G1 X102.102 Y118.874 E-.31871
G1 X102.643 Y118.874 E-.12492
G1 X102.539 Y118.77 E-.03405
;WIPE_END
G1 Z.6 F720
;AFTER_LAYER_CHANGE
;0.4
M140 S60 ; set bed temperature
G1 X102.539 Y122.754 F10800
G1 Z.4 F720
G1 E.8 F2100
;TYPE:Skirt/Brim
;WIDTH:0.42
G1 F3000
G1 X100 Y122.754 E.07961
G1 X98.583 Y122.361 E.04611
G1 X97.569 Y121.295 E.04613
G1 X97.246 Y120 E.04185
G1 X97.246 Y100 E.62709
G1 X97.639 Y98.583 E.04611
G1 X98.705 Y97.569 E.04613
G1 X100 Y97.246 E.04185
G1 X120 Y97.246 E.62709
G1 X121.417 Y97.639 E.04611
G1 X122.431 Y98.705 E.04613
G1 X122.754 Y100 E.04185
G1 X122.754 Y120 E.62709
G1 X122.361 Y121.417 E.04611
G1 X121.295 Y122.431 E.04613
G1 X120 Y122.754 E.04185
G1 X102.599 Y122.754 E.5456
G1 X102.599 Y122.377 F10800
G1 F3000
G1 X100 Y122.377 E.08149
G1 X98.693 Y121.985 E.04278
G1 X97.817 Y120.94 E.04275
G1 X97.623 Y120 E.03009
G1 X97.623 Y100 E.62709
G1 X98.015 Y98.693 E.04278
G1 X99.06 Y97.817 E.04275
G1 X100 Y97.623 E.03009
G1 X120 Y97.623 E.62709
G1 X121.307 Y98.015 E.04278
G1 X122.183 Y99.06 E.04275
G1 X122.377 Y100 E.03009
G1 X122.377 Y120 E.62709
G1 X121.985 Y121.307 E.04278
G1 X120.94 Y122.183 E.04275
G1 X120 Y122.377 E.03009
G1 X102.659 Y122.377 E.54371
; printing object xyzCalibration_cube.stl id:0 copy 0
;WIPE_START
G1 F8640
G1 X100 Y122.377 E-.61397
G1 X99.228 Y122.146 E-.18603
;WIPE_END
G1 Z.8 F720
G1 X119.368 Y119.368 F10800
G1 Z.4 F720
G1 E.8 F2100
M204 S800
;TYPE:Perimeter
;WIDTH:0.449999
G1 F3600
G1 X100.632 Y119.368 E.63419
G1 X100.632 Y100.632 E.63419
G1 X119.368 Y100.632 E.63419
G1 X119.368 Y119.308 E.63216
M204 S1000
G1 X119.775 Y119.775 F10800
M204 S800
;TYPE:External perimeter
G1 F2099.996

G1 X119.325 Y119.775 E.01523
G1 X100.675 Y119.775 E.63128
G1 X100.225 Y119.775 E.01523
G1 X100.225 Y119.325 E.01523
G1 X100.225 Y100.675 E.63128
G1 X100.225 Y100.225 E.01523
G1 X100.675 Y100.225 E.01523
G1 X119.325 Y100.225 E.63128
G1 X119.775 Y100.225 E.01523
G1 X119.775 Y100.675 E.01523
G1 X119.775 Y119.265 E.62925
G1 X119.775 Y119.715 E.01523

M204 S1000
G1 X119.389 Y119.671 F10800
;WIPE_START
G1 F8640
G1 X116.31 Y119.726 E-.8
;WIPE_END
G1 Z.8 F720
G1 X101.109 Y101.031 F10800
G1 Z.4 F720
G1 E.8 F2100
;TYPE:Solid infill
;WIDTH:0.548766
G1 F12000
G1 X101.064 Y100.987 E.00265
G1 X101.003 Y101.003 E.00265
G1 X100.987 Y101.064 E.00265
G1 X101.031 Y101.109 E.00265
G1 X101.093 Y101.093 E.00269
;WIDTH:0.449999
G1 X100.998 Y101.743 E.02224
G1 X101.743 Y100.998 E.03566
G1 X102.318 Y100.998 E.01946
G1 X100.998 Y102.318 E.06319
G1 X100.998 Y102.894 E.0195
G1 X102.894 Y100.998 E.09076
G1 X103.47 Y100.998 E.0195
G1 X100.998 Y103.47 E.11833
G1 X100.998 Y104.046 E.0195
G1 X104.046 Y100.998 E.14591
G1 X104.621 Y100.998 E.01946
G1 X100.998 Y104.621 E.17343
G1 X100.998 Y105.197 E.0195
G1 X105.197 Y100.998 E.201
G1 X105.773 Y100.998 E.0195
G1 X100.998 Y105.773 E.22858
G1 X100.998 Y106.348 E.01946
M73 P5 R23
G1 X106.348 Y100.998 E.2561
G1 X106.924 Y100.998 E.0195
G1 X100.998 Y106.924 E.28367
G1 X100.998 Y107.5 E.0195
G1 X107.5 Y100.998 E.31125
G1 X108.075 Y100.998 E.01946
G1 X100.998 Y108.075 E.33877
G1 X100.998 Y108.651 E.0195
G1 X108.651 Y100.998 E.36634
G1 X109.227 Y100.998 E.0195
G1 X100.998 Y109.227 E.39392
G1 X100.998 Y109.803 E.0195
G1 X109.803 Y100.998 E.42149
G1 X110.378 Y100.998 E.01946
G1 X100.998 Y110.378 E.44901
G1 X100.998 Y110.954 E.0195
G1 X110.954 Y100.998 E.47659
G1 X111.53 Y100.998 E.0195
G1 X100.998 Y111.53 E.50416
G1 X100.998 Y112.105 E.01946
G1 X112.105 Y100.998 E.53169
G1 X112.681 Y100.998 E.0195
G1 X100.998 Y112.681 E.55926
G1 X100.998 Y113.257 E.0195
G1 X113.257 Y100.998 E.58683
G1 X113.832 Y100.998 E.01946
G1 X100.998 Y113.832 E.61436
G1 X100.998 Y114.408 E.0195
G1 X114.408 Y100.998 E.64193
G1 X114.984 Y100.998 E.0195
G1 X100.998 Y114.984 E.6695
G1 X100.998 Y115.559 E.01946
G1 X115.559 Y100.998 E.69703
G1 X116.135 Y100.998 E.0195
G1 X100.998 Y116.135 E.7246
G1 X100.998 Y116.711 E.0195
G1 X116.711 Y100.998 E.75217
G1 X117.287 Y100.998 E.0195
G1 X100.998 Y117.287 E.77974
G1 X100.998 Y117.862 E.01946
G1 X117.862 Y100.998 E.80727
G1 X118.438 Y100.998 E.0195
G1 X100.998 Y118.438 E.83484
G1 X101.011 Y119.002 E.0191
G1 X119.002 Y101.011 E.86122
G1 X119.002 Y101.586 E.01946
G1 X101.586 Y119.002 E.83369
G1 X102.162 Y119.002 E.0195
G1 X119.002 Y102.162 E.80612
G1 X119.002 Y102.738 E.0195
G1 X102.738 Y119.002 E.77855
G1 X103.313 Y119.002 E.01946
G1 X119.002 Y103.313 E.75102
G1 X119.002 Y103.889 E.0195
G1 X103.889 Y119.002 E.72345
G1 X104.465 Y119.002 E.0195
G1 X119.002 Y104.465 E.69588
G1 X119.002 Y105.04 E.01946
G1 X105.04 Y119.002 E.66835
G1 X105.616 Y119.002 E.0195
G1 X119.002 Y105.616 E.64078
G1 X119.002 Y106.192 E.0195
G1 X106.192 Y119.002 E.61321
G1 X106.768 Y119.002 E.0195
G1 X119.002 Y106.768 E.58563
G1 X119.002 Y107.343 E.01946
G1 X107.343 Y119.002 E.55811
G1 X107.919 Y119.002 E.0195
G1 X119.002 Y107.919 E.53054
G1 X119.002 Y108.495 E.0195
G1 X108.495 Y119.002 E.50296
G1 X109.07 Y119.002 E.01946
G1 X119.002 Y109.07 E.47544
G1 X119.002 Y109.646 E.0195
G1 X109.646 Y119.002 E.44787
G1 X110.222 Y119.002 E.0195
G1 X119.002 Y110.222 E.42029
G1 X119.002 Y110.797 E.01946
G1 X110.797 Y119.002 E.39277
G1 X111.373 Y119.002 E.0195
G1 X119.002 Y111.373 E.3652
G1 X119.002 Y111.949 E.0195
G1 X111.949 Y119.002 E.33762
G1 X112.524 Y119.002 E.01946
G1 X119.002 Y112.524 E.3101
G1 X119.002 Y113.1 E.0195
G1 X113.1 Y119.002 E.28253
G1 X113.676 Y119.002 E.0195
G1 X119.002 Y113.676 E.25495
G1 X119.002 Y114.252 E.0195
G1 X114.252 Y119.002 E.22738
G1 X114.827 Y119.002 E.01946
G1 X119.002 Y114.827 E.19985
G1 X119.002 Y115.403 E.0195
G1 X115.403 Y119.002 E.17228
G1 X115.979 Y119.002 E.0195
G1 X119.002 Y115.979 E.14471
G1 X119.002 Y116.554 E.01946
G1 X116.554 Y119.002 E.11718
G1 X117.13 Y119.002 E.0195
G1 X119.002 Y117.13 E.08961
G1 X119.002 Y117.706 E.0195
G1 X117.706 Y119.002 E.06204
G1 X118.281 Y119.002 E.01946
G1 X119.002 Y118.281 E.03451
G1 X119.019 Y118.943 E.02242
;WIDTH:0.534576
G1 X118.975 Y118.9 E.00252
G1 X118.916 Y118.916 E.0025
G1 X118.9 Y118.975 E.0025
G1 X118.943 Y119.019 E.00252
G1 X119.003 Y119.003 E.00254
; stop printing object xyzCalibration_cube.stl id:0 copy 0
M106 S175.95
;LAYER_CHANGE
;Z:0.6
;HEIGHT:0.2
;BEFORE_LAYER_CHANGE
G92 E0.0
;0.6


;WIPE_START
G1 F8640
G1 X118.943 Y119.019 E-.01434
G1 X118.9 Y118.975 E-.01421
G1 X118.916 Y118.916 E-.01412
G1 X118.975 Y118.9 E-.01412
G1 X119.019 Y118.943 E-.01421
G1 X119.002 Y118.281 E-.15291
G1 X118.281 Y119.002 E-.23544
G1 X117.706 Y119.002 E-.13277
G1 X118.343 Y118.365 E-.20788
;WIPE_END
G1 Z.8 F720
;AFTER_LAYER_CHANGE
;0.6
G1 X118.343 Y122.754 F10800
G1 Z.6 F720
G1 E.8 F2100
;TYPE:Skirt/Brim
;WIDTH:0.42
G1 F3000
G1 X100 Y122.754 E.57513
G1 X98.583 Y122.361 E.04611
G1 X97.569 Y121.295 E.04613
G1 X97.246 Y120 E.04185
G1 X97.246 Y100 E.62709
G1 X97.639 Y98.583 E.04611
G1 X98.705 Y97.569 E.04613
G1 X100 Y97.246 E.04185
G1 X120 Y97.246 E.62709
M73 P6 R23
G1 X121.417 Y97.639 E.04611
G1 X122.431 Y98.705 E.04613
G1 X122.754 Y100 E.04185
G1 X122.754 Y120 E.62709
G1 X122.361 Y121.417 E.04611
G1 X121.295 Y122.431 E.04613
G1 X120 Y122.754 E.04185
G1 X118.403 Y122.754 E.05007
G1 X118.403 Y122.377 F10800
G1 F3000
G1 X100 Y122.377 E.57701
G1 X98.693 Y121.985 E.04278
G1 X97.817 Y120.94 E.04275
G1 X97.623 Y120 E.03009
G1 X97.623 Y100 E.62709
G1 X98.015 Y98.693 E.04278
G1 X99.06 Y97.817 E.04275
G1 X100 Y97.623 E.03009
G1 X120 Y97.623 E.62709
G1 X121.307 Y98.015 E.04278
G1 X122.183 Y99.06 E.04275
G1 X122.377 Y100 E.03009
G1 X122.377 Y120 E.62709
G1 X121.985 Y121.307 E.04278
G1 X120.94 Y122.183 E.04275
G1 X120 Y122.377 E.03009
G1 X118.463 Y122.377 E.04819
; printing object xyzCalibration_cube.stl id:0 copy 0
;WIPE_START
G1 F8640
G1 X114.998 Y122.377 E-.8
;WIPE_END
G1 Z1 F720
G1 X119.368 Y119.368 F10800
G1 Z.6 F720
G1 E.8 F2100
M204 S800
;TYPE:Perimeter
;WIDTH:0.449999
G1 F3021.613

G1 X100.632 Y119.368 E.63419
G1 F3194.833
G1 X100.632 Y100.632 E.63419
G1 X119.368 Y100.632 E.63419
G1 F2994.954
G1 X119.368 Y119.308 E.63216

M204 S1000
G1 X119.775 Y119.775 F10800
M204 S800
;TYPE:External perimeter
G1 F1900.24

G1 X119.325 Y119.775 E.01523
G1 X100.675 Y119.775 E.63128
G1 F1960.066
G1 X100.225 Y119.775 E.01523
G1 X100.225 Y119.325 E.01523
G1 X100.225 Y100.675 E.63128
G1 X100.225 Y100.225 E.01523
G1 X100.675 Y100.225 E.01523
G1 X119.325 Y100.225 E.63128
G1 X119.775 Y100.225 E.01523
G1 F1973.709
G1 X119.775 Y100.675 E.01523
G1 F1893.698
G1 X119.775 Y119.265 E.62925
G1 F1890.92
G1 X119.775 Y119.715 E.01523

M204 S1000
G1 X119.389 Y119.671 F10800
;WIPE_START
G1 F8640
G1 X116.31 Y119.726 E-.8
;WIPE_END
G1 Z1 F720
G1 X101.031 Y118.891 F10800
G1 Z.6 F720
G1 E.8 F2100
;TYPE:Solid infill
;WIDTH:0.548766
G1 F12000
G1 X100.987 Y118.936 E.00265
G1 X101.003 Y118.997 E.00265
G1 X101.064 Y119.013 E.00265
G1 X101.109 Y118.969 E.00265
G1 X101.093 Y118.907 E.00269
;WIDTH:0.449999
G1 X100.998 Y118.257 E.02224
G1 X101.743 Y119.002 E.03566
G1 X102.318 Y119.002 E.01946
G1 X100.998 Y117.682 E.06319
G1 X100.998 Y117.106 E.0195
G1 X102.894 Y119.002 E.09076
G1 X103.47 Y119.002 E.0195
G1 X100.998 Y116.53 E.11833
G1 X100.998 Y115.954 E.0195
G1 X104.046 Y119.002 E.14591
G1 X104.621 Y119.002 E.01946
G1 X100.998 Y115.379 E.17343
G1 X100.998 Y114.803 E.0195
G1 X105.197 Y119.002 E.201
G1 X105.773 Y119.002 E.0195
G1 X100.998 Y114.227 E.22858
G1 X100.998 Y113.652 E.01946
G1 X106.348 Y119.002 E.2561
G1 X106.924 Y119.002 E.0195
G1 X100.998 Y113.076 E.28367
G1 X100.998 Y112.5 E.0195
G1 X107.5 Y119.002 E.31125
G1 X108.075 Y119.002 E.01946
G1 X100.998 Y111.925 E.33877
G1 X100.998 Y111.349 E.0195
